!!!!SEGMENT: pl-wumfc--n43036--001-001_szymanowski-karol--iime-sonate-op-21-i.krn
!!!cenid: 19xx:86
!!!COM: Szymanowski, Karol
!!!COM-rismID: pe30106403
!!!CDT: 1882-1937
!!!CNT: Polish
!!!OPR: IIme Sonate Op. 21
!!!OTL: I.
!!!OMV: 001
!!!PDT:
!!!AGN: Secular; Sonata
!!!YEC: Copyright 2022 Narodowy Instytut Fryderyka Chopina (https://polishscores.org)
!!!YEM: License CC-BY-4.0 (https://creativecommons.org/licenses/by/4.0)
!!!SMS-siglum: PL-Wumfc
!!!SMS-shelfmark:
!!!SMS-variant:
!!!SMS-altvar:
!!!SMS-shelfwork: 001-001 M
!!!NIFC-rismSourceID: 1001174896
!!!NIFC-rismChildID: 1001174896
!!!NIFC-islandoraID: pl-wumfc:9283
!!!URL-pdf-islandora: https://repozytorium.nifc.pl/islandora/object/pl-wumfc%3A9283/datastream/PDF/view
!!!URL-scan: https://polish.musicsources.pl/pl/lokalizacje/galeria/druki-muzyczne/12468/5 @EN{Scan on Polish Music Sources Website} @PL{Skany w portalu Dziedzictwo Muzyki Polskiej w otwartym dostępie}
!!!IIIF:
!!!ONB-nifc: UWAGA: I część Sonaty, str. 5-12.
!!!AIN: 2 forte
!!!key: A
**kern	**fing	**kern	**fing	**dynam
*part2	*part2	*part1	*part1	*part1
*staff2	*	*staff1	*	*
*I"Piano	*	*I"Piano	*	*
*I'P-no	*	*I'P-no	*	*
*Iforte	*	*Iforte	*	*
*ICklav	*	*ICklav	*	*
*clefF4	*	*clefG2	*	*
*k[]	*	*k[]	*	*
*A:	*	*A:	*	*
*M2/2	*	*M2/2	*	*
*met(c|)	*	*met(c|)	*	*
!	!	!LO:TX:B:a:t=Allegro assai. (Molto appassionato.)	!	!
12r	.	4r	.	p <
(12GGG#X/L	.	.	.	.
12GG#X/J)	.	.	.	.
!LO:TUP:a	!	!	!	!
12r	.	4r	.	.
(12F\L	.	.	.	[
12D\J)	.	.	.	sf
*Xtuplet	*	*	*	*
12r	.	([4b [4B^^/	.	mf
(12GGGn/L	.	.	.	.
12GGn/J)	.	.	.	.
=1	=1	=1	=1	=1
12r	.	4b] 4B/]	.	<
(12F\L	.	.	.	.
12D\J)	.	.	.	.
12r	.	4cc#X 4c#X/	.	.
(12FFF#X/L	.	.	.	.
12FF#X/J)	.	.	.	.
12r	.	4dd 4d/	.	.
(12F#X\L	.	.	.	.
12D\J)	.	.	.	.
!	!	!LO:TX:t=P:problem=kasowniki w nawiasie	!	!
12r	.	4ffn 4fn\	.	.
(12FFFn/L	.	.	.	.
12FFn/J)	.	.	.	.
=2	=2	=2	=2	=2
12r	.	4gg#X 4g#X\	.	.
(12B\L	.	.	.	.
12D\J)	.	.	.	.
12r	.	8bb 8b^\)	.	[
(12GGG/L	.	.	.	.
.	.	8r	.	sf
12EE/J)	.	.	.	.
12r	.	(2g#X 2G#X^^/	.	mp
(<12D/L	.	.	.	.
12BB/J)	.	.	.	.
12r	.	.	.	.
(12DDD#X/L	.	.	.	.
12DD#X/J)	.	.	.	.
!!LO:LB:g=original
=3	=3	=3	=3	=3
12r	.	4a#X 4A#X/	.	.
(12D#X/L	.	.	.	.
12BB/J)	.	.	.	.
12r	.	4b 4B/	.	<
(12GGG#X/L	.	.	.	.
12GG#X/J)	.	.	.	.
!	!	!LO:TX:t=P:problem=kasowniki w nawiasie	!	!
12r	.	4ddn 4dn/	.	.
(12Bn\L	.	.	.	.
!LO:TX:t=P:problem=kasownik w nawiasie	!	!	!	!
12Fn\J)	.	.	.	.
12r	.	4gg#X 4g#X\	.	.
(12GGGn/L	.	.	.	.
12GGn/J)	.	.	.	.
=4	=4	=4	=4	=4
12r	.	4bb 4b\	.	.
(12B\L	.	.	.	.
12D\J)	.	.	.	.
12r	.	8ddd 8dd^\)	.	.
(12FFF#X/L	.	.	.	.
.	.	8r	.	[ sf
12FF#X/J)	.	.	.	.
12r	.	(2b 2B^^/	.	mf
(12A\L	.	.	.	.
12E-X\J)	.	.	.	.
12r	.	.	.	.
(12FFF#/L	.	.	.	.
12FF#/J)	.	.	.	.
=5	=5	=5	=5	=5
12r	.	4cc 4c/	.	p <
(12A\L	.	.	.	.
12E-X\J)	.	.	.	.
12r	.	4ee-X 4e-X/	.	.
(12FFFn/L	.	.	.	.
12FFn/J)	.	.	.	.
12r	.	4cc#X 4c#X/	.	.
(12B-X\L	.	.	.	.
12D\J)	.	.	.	.
12r	.	4dd 4d/	.	[[
(12BBB-X/L	.	.	.	.
12BB-X/J)	.	.	.	.
!!LO:LB:g=original
=6	=6	=6	=6	=6
12r	.	4dd#X 4d#X/	.	<
(12c#X\L	.	.	.	.
12G\J)	.	.	.	.
!	!	!LO:TX:t=P:problem=kasowniki w nawiasie	!	!
12r	.	4een 4en/	.	.
(12AAA/L	.	.	.	.
12AA/J)	.	.	.	.
12r	.	4gg 4g\	.	.
(12c#\L	.	.	.	.
12G\J)	.	.	.	.
12r	.	4ee 4e/	.	.
(12DD-X/L	.	.	.	.
12D-X/J)	.	.	.	[
=7	=7	=7	=7	=7
*	*	*^	*	*
12r	.	4ff\ 4f\)	4ryy	.	.
(12d-X\L	.	.	.	.	.
12A-X\J)	.	.	.	.	.
12r	.	(4ff#X 4f#X^^/	[2.ee 2.b-X\	.	<
!LO:TX:t=P:problem=kasownik w nawiasie	!	!	!	!	!
(12CCn/L	.	.	.	.	.
!LO:TX:t=P:problem=kasownik w nawiasie	!	!	!	!	!
12Cn/J)	.	.	.	.	.
12r	.	4gg 4g/	.	.	.
!LO:TX:t=P:problem=kasowniki w nawiasie	!	!	!	!	!
(12enL 12En\	.	.	.	.	.
12B-X\J)	.	.	.	.	.
12r	.	4bb-X 4b-/	.	.	.
(12FF#X/L	.	.	.	.	.
12F#X/J)	.	.	.	.	.
*	*	*v	*v	*	*
=8	=8	=8	=8	=8
12r	.	4gg 4ee] 4g\)	.	.
(12eL 12A#X 12E\	.	.	.	.
12c#X\J)	.	.	.	.
12r	.	(4aa-X 4a-X\	.	.
(12FFn/L	.	.	.	.
12Fn/J)	.	.	.	.
12r	.	4bb-X 4b-X\	.	.
(12gL 12G\	.	.	.	.
12c#X\J)	.	.	.	.
12r	.	4ddd-X 4dd-X\	.	.
(12EEn/L	.	.	.	.
12En/J)	.	.	.	.
!!LO:LB:g=original
=9	=9	=9	=9	=9
12r	.	4eeen 4een\	.	<
(12gL 12G\	.	.	.	.
12c#X\J)	.	.	.	.
12r	.	8ggg 8gg^\)	.	.
(12EE-X/L	.	.	.	[
.	.	8r	.	sf
12E-X/J)	.	.	.	.
12r	.	(2gg 2g^^\	.	mf
(12c#L 12C#X\	.	.	.	.
12B-X\J)	.	.	.	.
12r	.	.	.	.
(12DD/L	.	.	.	.
12D/J)	.	.	.	.
=10	=10	=10	=10	=10
12r	.	4aa 4a\	.	<
(12c#XL 12C#X\	.	.	.	.
12B-X\J)	.	.	.	.
12r	.	4bb-X 4b-X\	.	.
(12GGG#X/L	.	.	.	.
12GG#X/J)	.	.	.	.
12r	.	4ccc#X 4cc#X\	.	.
(12c#L 12C#\	.	.	.	.
12B-\J)	.	.	.	.
12r	.	4eee 4ee\	.	.
*	*	*	*	*^
!	!	!	!	!	!LO:HP:a
(12GGGn/L	.	.	.	.	<
12GGn/J)	.	.	.	.	.
=11	=11	=11	=11	=11	+11
12r	.	4ggg 4gg\	.	.	.
(12eL 12E\	.	.	.	.	.
12B-X\J)	.	.	.	.	.
12r	.	8bbb-X 8bb-X^\)	.	.	.
(12FFF#X/L	.	.	.	[	.
*	*	*	*	*v	*v
.	.	8r	.	sf
12FF#X/J)	.	.	.	.
12r	.	(2bb-X 2b-X^^\	.	mf
(12g#XL 12G#X\	.	.	.	.
12d\J)	.	.	.	.
12r	.	.	.	.
(12FFFn/L	.	.	.	.
12FFn/J)	.	.	.	.
!!LO:LB:g=original
=12	=12	=12	=12	=12
*	*	*^	*	*
12r	.	4bbn 4bn\	2ryy	.	<
(12g#XL 12G#X\	.	.	.	.	.
!	!	!LO:TX:i:b:t=poco accel.	!	!	!
12d\J)	.	.	.	.	.
12r	.	4ddd 4dd\	.	.	.
(12EEE/L	.	.	.	.	.
12EE/J)	.	.	.	.	.
12r	.	4ccc 4cc^^\	2aa 2ee/	.	.
(12aL 12A\	.	.	.	.	.
12e\J)	.	.	.	.	.
12r	.	4ccc#X 4cc#X\)	.	.	.
(12AAA/L	.	.	.	.	.
12AA/J)	.	.	.	.	.
=13	=13	=13	=13	=13	=13
12r	.	2.bb#X 2.ff#X/	(>4ddd 4dd^^\	.	.
(12aL 12A\	.	.	.	.	.
12d#X\J)	.	.	.	.	.
12r	.	.	4ddd#X 4dd#X\	.	.
(12GGG#X/L	.	.	.	.	.
12GG#X/J)	.	.	.	.	.
12r	.	.	4fff#X 4ff#\	.	.
(12f#XL 12F#X\	.	.	.	.	.
12B#X\J)	.	.	.	.	.
12r	.	[4cccn [4ggn/	4ddd# 4dd#\	.	.
(12CCn/L	.	.	.	.	.
12Cn/J)	.	.	.	.	.
=14	=14	=14	=14	=14	=14
12r	.	4eee 4ee\)	4ccc] 4gg/]	.	.
(12gnL 12Gn\	.	.	.	.	.
12cn\J)	.	.	.	.	.
*	*	*8va	*8va	*	*
12r	.	(4eee#X 4ee#X/	(2.ddd#X 2.aa\	.	.
(12BBB/L	.	.	.	.	.
12BB/J)	.	.	.	.	.
12r	.	4fff#X 4ff#X/	.	.	.
(12aL 12A\	.	.	.	.	.
12d#X\J)	.	.	.	.	.
12r	.	4aaa 4aa/	.	.	.
(12FFn/L	.	.	.	.	.
12Fn/J)	.	.	.	.	.
*	*	*v	*v	*	*
!!LO:PB:g=original
=15	=15	=15	=15	=15
12r	.	4ggg-X 4eee-X 4gg-X\))	.	.
(12aL 12A\	.	.	.	.
12g-XJ 12e-X\)	.	.	.	.
!	!	!	!	!LO:HP:t=sempre cresc.
!	!	!LO:TX:t=P:problem=bemole w nawiasie	!	!
12r	.	(4aaa 4ggg-X 4eee- 4aa^\	.	<
(12FFn/L	.	.	.	.
12Fn/J)	.	.	.	.
12r	.	4bbb-X 4eeen 4ddd-X 4bb-X\)	.	.
(12enL 12d-X 12B-X\	.	.	.	.
12b-X\J)	.	.	.	.
!	!	!LO:TX:i:b:t=poco accel.	!	!
12r	.	(4fffn 4ddd- 4bb- 4ffn^\	.	.
(12FF/L	.	.	.	.
12F/J)	.	.	.	.
=16	=16	=16	=16	=16
12r	.	4eeen 4dddn 4gg#X 4een/)	.	.
(12g#XL 12dn 12Bn\	.	.	.	.
12bn\J)	.	.	.	.
12r	.	(4bbbn 4ggg#X 4eee 4bbn^\	.	.
(12FFn/L	.	.	.	.
12Fn/J)	.	.	.	.
12r	.	4ccccn 4aaan 4ggg-X 4eee-X 4cccn\)	.	.
(12anL 12g-X 12cn\	.	.	.	.
12cc\J)	.	.	.	.
12r	.	(4ggg- 4eee- 4ccc 4gg-X^\	.	.
(12FF/L	.	.	.	.
12F/J)	.	.	.	.
=17	=17	=17	=17	=17
12r	.	4fffn 4dddn 4aan 4ffn\)	.	.
(12anL 12fn 12dn\	.	.	.	.
12ddn\J)	.	.	.	.
12r	.	(4cccc 4aaa 4fff 4ccc^\	.	<
(12FF/L	.	.	.	.
12F/J)	.	.	.	.
12r	.	4dddd-X 4bbb-X 4ggg-X 4ddd-X^\	.	.
(12f-XL 12d-X 12B-X\	.	.	.	.
12b-X\J)	.	.	.	.
!	!	!LO:TX:i:b:t=poco riten.	!	!
12r	.	4eeee-X 4cccc-X 4ggg- 4eee-X^\)	.	[[
(12GGG-X^^</L	.	.	.	.
12GG-X/J)	.	.	.	.
!!LO:LB:g=original
=18	=18	=18	=18	=18
!	!	!LO:TX:i:a:t=a tempo, molto deciso	!	!
12r	.	(8.ffffnL 8.dddd-X 8.bbb-X^^\	.	ff >
(12GGGn^/L	.	.	.	.
[12GG/J	.	.	.	.
.	.	16fffn\Jk)	.	.
12GG/L])	.	(8.fff-XL 8.ddd-X 8.aa-X^^\	.	.
(12AAA-X^/	.	.	.	.
[12AA-X/J	.	.	.	.
.	.	16ff-X\Jk)	.	.
*	*	*X8va	*	*
12AA-/L])	.	(8.ee-XL 8.cc-X 8.g-X^^/	.	.
(12AAAn^/	.	.	.	.
[12AAn/J	.	.	.	.
.	.	16e-X/Jk)	.	]
12AA/L])	.	(8.dnL 8.B-X 8.Fn^^/	.	.
(12BBB-X^/	.	.	.	.
12BB-X/J)	.	.	.	.
.	.	16D/Jk)	.	.
=19	=19	=19	=19	=19
*	*	*8va	*	*
12r	.	(8.eeeenL 8.ccccn 8.aaan^^\	.	ff >
(12FFF^/L	.	.	.	.
[12FF/J	.	.	.	.
.	.	16eeen\Jk)	.	.
12FF/L])	.	(8.ddd#XL 8.bbn 8.aan^^/	.	.
(12FFF#X^/	.	.	.	.
[12FF#X/J	.	.	.	.
.	.	16dd#X/Jk)	.	.
*	*	*X8va	*	*
12FF#/L])	.	(8.ddnL 8.b-X 8.g^^/	.	.
(12GGG^/	.	.	.	.
[12GG/J	.	.	.	.
.	.	16dn/Jk)	.	]
12GG/L])	.	(8.c#XL 8.An 8.En^^/	.	.
(12GGG^/	.	.	.	.
12AA/J)	.	.	.	.
.	.	16C#X/Jk)	.	.
!!LO:LB:g=original
=20	=20	=20	=20	=20
12r	.	(8.cnL 8.Gn 8.En^^/	.	mf
(12EEE/L	.	.	.	.
12EE/J)	.	.	.	.
.	.	16Cn/Jk)	.	.
12r	.	(8.gnL 8.e 8.c^^/	.	<
(12EE/L	.	.	.	.
12E/J)	.	.	.	.
!	!	!LO:TX:i:b:t=cresc. poco rit.	!	!
.	.	16G/Jk)	.	.
12r	.	(8.ccnL 8.g 8.e^^/	.	.
(12EEE/L	.	.	.	.
12EE/J)	.	.	.	.
.	.	16c/Jk)	.	.
12r	.	(8.gg#XL 8.ddn 8.bn^^\	.	.
(12EEE#X/L	.	.	.	.
12EE#X/J)	.	.	.	.
.	.	16g#X\Jk)	.	[[
!!LO:LB:g=original
=21	=21	=21	=21	=21
!	!	!LO:TX:i:a:t=poco piu tranquillo	!	!
!	!	!LO:TX:i:b:t=ten.	!	!
12r	.	(2B^^/	.	p <
(12FFF#X/L	.	.	.	.
12FF#X/J)	.	.	.	.
12r	.	.	.	.
(12E#X\L	.	.	.	.
12Dn\J)	.	.	.	.
12r	.	4c#X~>/	.	.
(12GGGn/L	.	.	.	.
12GGn/J)	.	.	.	.
12r	.	4dn~>/	.	.
(12B\L	.	.	.	.
12Fn\J)	.	.	.	.
=22	=22	=22	=22	=22
12r	.	4e#X~>/	.	.
(12GGG#X/L	.	.	.	.
12GG#X/J)	.	.	.	.
12r	.	4b~>\	.	.
(12B\L	.	.	.	.
12F#X\J)	.	.	.	.
12r	.	4dd#X~>\)	.	[
(12AAAn/L	.	.	.	.
12AAn/J)	.	.	.	.
!	!	!LO:TX:i:a:t=ben marcato	!	!
!	!	!LO:TX:b:i:t=ten.	!	!
12r	.	([4d#X/	.	.
(12B#X\L	.	.	.	.
12F#\J)	.	.	.	.
=23	=23	=23	=23	=23
*	*	*^	*	*
12r	.	4r	4d#\]	.	<
(12GGG#X/L	.	.	.	.	.
12GG#X/J)	.	.	.	.	.
!	!	!LO:TX:i:b:t=m.d.	!	!	!
12r	.	12r	4e\	.	.
(12Bn\L	.	(12bbL 12dd#X/	.	.	.
12E#X\J)	.	12ddn/J	.	.	.
!	!	!LO:TX:i:b:t=m.g.	!	!	!
12r	.	12aa#XL 12dd/	4e#X\	.	.
(12GGG#X/L	.	12cc#X/	.	.	.
12GG#X/J)	.	12gg#XJ 12ee#X/)	.	.	.
!	!	!LO:TX:i:b:t=m.d.	!	!	!
12r	.	12r	4f#X\	.	.
(12c##X\L	.	(12ff#XL 12dd/	.	.	[
12G#X\J)	.	12cc#/J)	.	.	.
*	*	*v	*v	*	*
!!LO:LB:g=original
=24||	=24||	=24||	=24||	=24||
*M3/4	*	*M3/4	*	*
*^	*	*^	*	*
*	*	*	*Xtuplet	*Xtuplet	*	*
12r	4ryy	.	12eenL 12cc#X/	4f##X\	.	.
(12AAA#X/L	.	.	12b#X/	.	.	.
12AA#X/J)	.	.	12dd#X/J)	.	.	sf
!	!	!	!LO:TX:i:b:t=ten.	!	!	!
2G#X^^/	4r	.	12r	2g#X^^\	.	.
!	!	!	!LO:TX:i:a:t=avvivando	!	!	!
.	.	.	(12fff#XL 12aa#X/	.	.	mf
.	.	.	12aan/J	.	.	.
.	12r	.	12eee#XL 12aa/	.	.	.
.	(12BBB#X\L	.	12ff#X/	.	.	.
.	12BB#X\J)	.	12ddd#X/J)	.	.	.
*v	*v	*	*	*	*	*
*	*	*v	*v	*	*
=25||	=25||	=25||	=25||	=25||
*M2/2	*	*M2/2	*	*
*met(c|)	*	*met(c|)	*	*
*^	*	*	*	*
!	!	!	!	!	!LO:HP:t=cresc. molto
4an 4An^/	12r	.	12r	.	<
.	(12CC#X\L	.	(12ddd#XL 12ff#X\	.	.
.	12C#X\J)	.	12ee#X\J	.	.
4a#X 4A#X^/	4r	.	12ccc#XL 12ff#\	.	<
.	.	.	12cc#X\	.	.
.	.	.	12bb#X\J)	.	.
4bn 4Bn^/	12r	.	12r	.	.
.	(12DDn\L	.	(12bbnL 12ggn 12ddn\	.	.
.	12Dn\J)	.	12ff#X\J	.	.
4dn^/	4r	.	12dddnL 12bb 12gg^\	.	[
.	.	.	12dd\	.	.
.	.	.	12bb\J)	.	.
*v	*v	*	*	*	*
=26	=26	=26	=26	=26
*	*	*^	*	*
!	!	!LO:TX:i:a:t=con passione	!	!	!
(12GGG/L	.	(4fffn 4ddd/	12ffn\L	.	<
12GG/)	.	.	12bb\	.	.
(12GGG#X/J	.	.	12aa#X\J	.	.
12GG#X/L)	.	2ddd#X 2bb^/	12dd#X\L	.	[ ff
(12BB/	.	.	12gg#X\	.	>
12B/J)	.	.	12ff##X\J	.	.
(12D#X\L	.	.	12gg#\L	.	.
12d#X\)	.	.	12dd#\	.	.
[<12AAA\J	.	.	12ff##\J	.	.
8AAL 8AAA/]	.	4ccc#X 4ee/	12ff#X\L	.	.
.	.	.	12cc#X\	.	.
[<8AA#XJ [<8AAA#X^/	.	.	.	.	.
.	.	.	[>12ff#^>\J	.	]
*	*	*v	*v	*	*
!!LO:LB:g=original
=27	=27	=27	=27	=27
*^	*	*	*	*
12c#XL 12F#X 12E/	2.AA#X] 2.AAA#X\]	.	(12ff#X]L 12ee 12cc#X\)	.	mf
12e/	.	.	12f#X\	.	.
!	!	!	!	!	!LO:HP:t=molto cresc.
12c#J 12F# 12E/	.	.	12ff#J 12ee 12cc#\	.	<
12cnL 12Gn 12E/	.	.	12ggnL 12ee 12ccn\	.	.
12e/	.	.	12gn\	.	.
[12cJ [12G [12E/	.	.	12ggJ 12ee 12cc\	.	.
4e ]4c ]4G] 4E/	.	.	12cc\L	.	.
.	.	.	12cccn 12gg 12ee\	.	.
.	.	.	12cc\J	.	.
4GG 4GGG^^/	4ryy	.	12eeeL 12ccc 12gg\	.	<
.	.	.	12ee\	.	.
.	.	.	12eeeJ 12ccc 12gg\)	.	.
*v	*v	*	*	*	*
=28	=28	=28	=28	=28
*	*	*^	*	*
!	!	!LO:TX:t=P:problem=kasowniki w nawiasach	!	!	!
(12GGG#X/L	.	4fffn 4ffn/	(>12eee\L	.	.
12GG#X/)	.	.	12ccc\	.	.
(12AAA/J	.	.	12bb\J	.	.
!	!	!LO:TX:t=P:problem=kasowniki w nawiasach	!	!	!
12AA\L)	.	2fffn 2ffn/	12ccc\L	.	[ ff
(12C\	.	.	12aa\	.	>
12c\J)	.	.	12ccc\J	.	.
(12F\L	.	.	12aa\L	.	.
12f\)	.	.	12ccc\	.	.
(12F#X\J	.	.	12aa\J	.	.
12f#X\L))	.	4eee/	12ccc\L	.	.
(12Gn\	.	.	12ee\	.	.
12g\J)	.	.	[>12aa^\J)	.	]
=29	=29	=29	=29	=29	=29
4D-X 4DD-X^^/	.	4aa/]	(>12aaL 12a\	.	mf
!	!	!	!	!	!LO:HP:t=molto cresc.
.	.	.	12ee\	.	<
.	.	.	12cc#X\J	.	.
12e-XL 12B-X 12G\	.	4ryy	12bb-XL 12gg 12ee-X\	.	.
12g\	.	.	12b-X\	.	.
12e-J 12B- 12G\	.	.	12bb-J 12gg 12ee-\	.	.
(12BBB-X^^/L	.	2ryy	12ee-\L	.	.
12BB-X/)	.	.	12eee-X 12bb- 12gg\	.	.
(12BBB-/J	.	.	12ee-\J	.	.
12BBn/L)	.	.	12gggL 12eee- 12bb-\	.	.
(12BBBn^^/	.	.	12gg\	.	.
12BB/J)	.	.	12gggJ 12eee- 12bb-\)	.	.
*	*	*v	*v	*	*
!!LO:PB:g=original
=30	=30	=30	=30	=30
*	*below	*	*	*
!	!	!LO:TX:i:b:t=(sempre)	!	!
!	!	!LO:TX:i:a:t=passionato, ma senza accel. il tempo	!	!
(12CC/L	.	(12bbb-XL 12ggg-X^\	.	ff
12C/	1	12eee-X\	.	.
12C/J	5	12bb-X\J	.	.
12E-X\L	.	12aanL 12ff^\	.	.
12F\	.	12cc\	.	.
12e-X\J)	.	12an\J	.	.
(12DD-X\L	.	12ffL 12a 12f^\	.	<
12D-X\	.	12cc\	.	.
12F\J	.	12ee-X\J	.	.
12e-XL 12A\	.	12ff\L	.	.
12F\	.	12aa\	.	.
12E-\J)	.	12ccc\J	.	[[
=31	=31	=31	=31	=31
*	*	*^	*	*
(12DnL 12DDn/	.	4fff^/)	12aa-XL 12ff\	.	.
12F/	.	.	12ccc\	.	.
12A-X/J	.	.	12ff\J	.	.
12a-XL 12c^\	.	(2aaa-X^/	12fffL 12aa-\	.	.
12A-\	.	.	12ccc\	.	.
12F\J)	.	.	12aa-\J	.	.
(12EEn\L	.	.	12ddd-XL 12bb-X\	.	.
12En\	.	.	12aa-\	.	.
12B-X\J	.	.	12ddd-J 12bb-\	.	.
12gL 12d-X^\	.	4ggg^/)	12gg\L	.	.
12B-\	.	.	12ddd- 12bb-\	.	.
12G\J)	.	.	12gg\J	.	.
*	*	*v	*v	*	*
=32	=32	=32	=32	=32
(12FFF/L	.	(12gggL 12ddd-X 12gg^\	.	.
12FF/	.	12aa-X\	.	.
12AA-X/J	.	12gg\J	.	.
12A-XL 12D-X/	.	12ffL 12dd-X 12f^\	.	.
12AA-/	.	12a-X\	.	<
12FF/J)	.	12f\J	.	.
(12FFF#X/L	.	12ccL 12e-X 12c^>/	.	.
12FF#X/	.	12g#X/	.	.
12AAn/J	.	12an/J	.	.
12AnL 12E-X/	.	12ccL 12a\	.	.
12C/	.	12ee-X\	.	.
12AA/J)	.	12aa-\J	.	[[
!!LO:PB:g=original
=33	=33	=33	=33	=33
*	*	*^	*	*
(12GGG/L	.	4ccc 4bb-X/)	12cc\L	.	.
12GG/	.	.	12een\	.	.
12C/J	.	.	12cc\J	.	.
12B-XL 12En\	.	(2eee-X 2ee-X^/	12gg\L	.	sf
12C\	.	.	12bb-\	.	.
12GG\J)	.	.	12gg\J	.	.
(12GGG#X/L	.	.	12bbn\L	.	.
12GG#X/	.	.	12ff\	.	.
12D/J	.	.	12bb\J	.	.
12dL 12F\	.	4ddd 4dd/)	12ff\L	.	.
12D\	.	.	12bb\	.	.
!LO:TX:t=P:problem=# w nawiasie	!	!	!	!	!
12GG#X\J)	.	.	12ff\J	.	.
=34	=34	=34	=34	=34	=34
!	!	!LO:TX:i:a:t=poco riten.	!	!	!LO:HP:t=dim.molto
(12AAA/L	.	2ryy	(12dddL 12aa\	.	>
12AA/	.	.	12een 12dd\	.	.
12E/J	.	.	12dddJ 12aa\	.	.
12e\L	.	.	12cc\L	.	>
12A\J)	.	.	12ccc 12aa 12ee\	.	.
12r	.	.	12cc\J)	.	.
!	!	!LO:TX:i:b:t=ten.	!	!	!
12r	.	(2dd 2d^/	4r	.	] p
(12AAA/L	.	.	.	.	.
12AA/J)	.	.	.	.	.
12r	.	.	([>4cc 4f#X\	.	<
(12c\L	.	.	.	.	.
12F#X\J)	.	.	.	.	.
=35	=35	=35	=35	=35	=35
12r	.	4ee-X 4e-X/	2cc] 2g-X\)	.	.
(12AAA-X/L	.	.	.	.	.
12AA-X/J)	.	.	.	.	.
12r	.	4gg-X 4g-X/	.	.	.
(12cn\L	.	.	.	.	.
12G-X\J)	.	.	.	.	.
12r	.	4een 4en/	2dd-X 2a-X\	.	.
(12DD-X/L	.	.	.	.	.
12D-X/J)	.	.	.	.	.
12r	.	4ffn 4fn/)	.	.	.
(12d-X\L	.	.	.	.	.
12A-X\J)	.	.	.	.	[
!!LO:LB:g=original
=36	=36	=36	=36	=36	=36
!	!	!LO:TX:i:a:t=poco accel.	!	!	!
12r	.	(4ff#X 4f#X/	2.een 2.b-X\	.	<
!LO:TX:t=P:problem=n w nawiasie	!	!	!	!	!
(12CCn/L	.	.	.	.	.
12Cn/J)	.	.	.	.	.
12r	.	4ggn 4gn/	.	.	.
(12e\L	.	.	.	.	.
12B-X\J)	.	.	.	.	.
12r	.	4aa#X 4a#X/	.	.	.
(12BBBn/L	.	.	.	.	.
12BBn/J)	.	.	.	.	.
!	!	!LO:TX:t=P:problem=n w nawiasie	!	!	!
12r	.	4ggn 4ee 4a# 4gn/)	4ryy	.	.
(12e\L	.	.	.	.	.
12G#X\J)	.	.	.	.	[
=37	=37	=37	=37	=37	=37
12r	.	2ee 2cc#X/	(>4gg#X 4g#X\	.	.
(12AAA#X/L	.	.	.	.	.
12AA#X/J)	.	.	.	.	.
12r	.	.	4aa#X 4a#X\	.	.
(12c#X\L	.	.	.	.	.
12E\J)	.	.	.	.	.
12r	.	2ff#X 2dd#X/	4ccc#X 4cc#\	.	.
(12AAAn/L	.	.	.	.	.
12AAn/J)	.	.	.	.	.
12r	.	.	4aa# 4a#\)	.	.
(12B\L	.	.	.	.	.
12D#X\J)	.	.	.	.	.
=38	=38	=38	=38	=38	=38
*	*	*	*	*	*^
!	!	!	!	!	!LO:HP:b	!
12r	.	2ffn 2ddn/	(>4bb 4b\	.	<	.
(12GGG#X/L	.	.	.	.	.	.
12GG#X/J)	.	.	.	.	.	.
12r	.	.	4ccc#X 4cc#X\	.	.	.
!	!	!	!	!	!	!LO:HP:a:t=cresc.
(12B\L	.	.	.	.	.	<
12Dn\J)	.	.	.	.	.	.
12r	.	2bb 2ff/	4eee 4ee\	.	.	.
(12GGGn/L	.	.	.	.	.	.
12GGn/J)	.	.	.	.	.	.
12r	.	.	4ccc# 4cc#\)	.	.	.
(12fnL 12Fn\	.	.	.	.	.	.
12B\J)	.	.	.	.	[	.
*	*	*	*	*	*v	*v
!!LO:LB:g=original
=39	=39	=39	=39	=39	=39
*^	*	*	*	*	*
!	!	!	!LO:TX:i:b:t=rit.	!	!	!
4rA	12rFF	.	2bb 2ff/	(>4ccc##X 4cc##X\	.	ff <
.	(12FFF#X\L	.	.	.	.	.
.	12FF#X\J)	.	.	.	.	.
&&(2gn 2Gn'^^/	4rFF	.	.	4ddd#X 4dd#X\	.	???
.	(12BBBL 12FFF#X\	.	4ryy	8fff#X 8ddd# 8bb 8ff^\)	.	.
.	12FF#\	.	.	.	.	.
.	.	.	.	8r	.	[
.	12E#X\J)	.	.	.	.	.
!LO:TX:t=P:problem:mixed beam	!	!	!LO:TX:i:a:t=poco rall.,espress.,con forza	!	!	!
4ryy	&[8.F#X/L	.	8.f#X'^^/L&&)	[4f#\	.	.
.	16e>\Jk	.	16ee'^^/Jk	.	.	.
=40	=40	=40	=40	=40	=40	=40
[<1BB [<1FF#X^^<	4F#/&]	.	(2ee 2e~^^/	4f#\]	.	<
.	(>2An^^>/	.	.	(2an\	.	[ >
.	.	.	[>2dd#X [<2d#X~^^/	.	.	.
.	4G#X/)	.	.	4g#X\)	.	.
=41	=41	=41	=41	=41	=41	=41
4Gn/	4BB] 4FF#\]	.	4dd#] 4d#/])	4gn\	.	] <
4F#X 4D#X 4BB 4FF#X/	4ryy	.	[2dd#X [2d#X~^^/	4b 4f#X\	.	ff
!	!	!	!LO:TX:i:b:t=ten.	!	!	!
(>8qGG#X 8qGGG#X/	.	.	.	.	.	.
2B 2E#X 2D# 2GG#/)	2ryy	.	.	2b 2e#X\	.	[
!	!	!	!LO:TX:i:b:t=poco rit.	!	!	!
.	.	.	8.dd#]L 8.d#/]	.	.	.
.	.	.	16ee#XJk 16e#X~^^/	.	.	.
*v	*v	*	*	*	*	*
*	*	*v	*v	*	*
!!LO:LB:g=original
=42	=42	=42	=42	=42
!	!	!LO:TX:i:a:t=con fuoco	!	!
(8qAA#X 8qAAA#X\	.	.	.	.
4A#X 4E#X 4AA#X~^^\)	.	2dd#X [2a#X [2e#X 2d#X~^^/	.	??? <
!LO:TX:t=P:problem:przenośnik oktawowy w dół	!	!	!	!
&(20AAA#X^^/LL	.	.	.	.
20AA#X/	.	.	.	.
20EE#X/	.	.	.	.
20AA#X/	.	.	.	.
20E#X/JJ	.	.	.	.
8A#X\	.	28cc##X~^^LL 28a#] 28e#] 28c##X\	.	[
.	.	28e#X\	.	<
.	.	28a#\	.	.
.	.	28cc##\	.	.
*clefG2	*	*	*	*
16r	.	.	.	.
.	.	28ee#X\	.	.
.	.	28aa#X\	.	.
32r	.	.	.	.
.	.	28ccc##X\JJ	.	[
(32c##X/	.	.	.	.
8cc##X\)	.	8cccc##X^\&)	.	sff
8r	.	8r	.	.
!!LO:LB:g=original
*clefF4	*	*	*	*
=43||	=43||	=43||	=43||	=43||
*M3/4	*	*M3/4	*	*
!	!	!LO:TX:i:a:t=a tempo; molto decioso ed accel.	!	!
8e-XL 8B-X^>/	.	8ggnL 8ee-X 8b-X 8gn^\	.	ff
16r	.	16r	.	.
(16BB-XJk 16BBB-X/	.	(16bb-XJk 16b-\	.	.
8dnL 8An^\)	.	8ff#XL 8ddn 8f#X^\)	.	.
16r	.	16r	.	.
(16BBnJk 16BBBn\	.	(16ggJk 16g\	.	.
8d-XL 8A-X^\)	.	8ffnL 8dd-X 8fn^\)	.	.
16r	.	16r	.	.
(<16D-XJk 16DD-X\	.	(16gg-XJk 16g-X\	.	.
=44||	=44||	=44||	=44||	=44||
*M2/2	*	*M2/2	*	*
*met(c|)	*	*met(c|)	*	*
*^	*	*^	*	*
*	*^	*	*	*	*	*
8BnL 8F#X^/)	2ryy	2ryy	.	8dd#XL 8bn 8d#X^>/)	2ryy	.	.
16r	.	.	.	16r	.	.	.
(>16DD#XJk 16DDD#X/	.	.	.	(16ff#XJk 16f#X/	.	.	.
*ped	*	*	*	*	*	*	*
[<4D#X 4DD#X^^/)	.	.	.	8cc#XL 8an 8c#X^/)	.	.	sf
.	.	.	.	16r	.	.	.
.	.	.	.	(>16dd#Jk 16d#/	.	.	.
(8.B^/L	2D#\_	4G#X\	.	8.b^/L	4g#X 4d#\	.	>
16c#X/Jk)	.	.	.	16cc#/Jk)	.	.	.
(8.A^/L	.	[<4F#\	.	(8.a^/L	4f# 4c#X\	.	.
16B/Jk)	.	.	.	16b/Jk)	.	.	]
*v	*v	*v	*	*	*	*	*
*	*	*v	*v	*	*
=45||	=45||	=45||	=45||	=45||
*M3/4	*	*M3/4	*	*
*^	*	*	*	*
!	!	!	!LO:TX:i:a:t=senza rall.	!	!
8F#] 8D#\]	8G#X/	.	(8.g#XL 8.f#X 8.d#X 8.c#X^>/	.	f
(<4DD#X 4DDD#X~/	8ryy	.	.	.	.
.	.	.	16bnJk 16B#X/)	.	.
.	2ryy	.	(8.g#L 8.e#X 8.c#X 8.Bn^>/	.	.
4FF#X 4FFF#X~/	.	.	.	.	.
.	.	.	16anJk 16A#X/)	.	.
.	.	.	(8.e#L 8.d# 8.B#X 8.An^>/	.	.
8AAn 8AAAn~/)	.	.	.	.	.
.	.	.	16f#Jk 16G#X/)	.	.
*v	*v	*	*	*	*
!!LO:LB:g=original
=46	=46	=46	=46	=46
8r	.	(8.gg#XL 8.ff#X 8.dd#X 8.cc#X^\	.	f
(4DD#X 4DDD#X~/	.	.	.	.
.	.	16bbnJk 16b#X\)	.	>
.	.	(8.gg#L 8.ee#X 8.cc# 8.bn^\	.	>
4FF#X 4FFF#X~/	.	.	.	.
.	.	16aanJk 16a#X\)	.	.
!	!	!LO:TX:i:a:t=calando	!	!
.	.	(8.ee#L 8.dd# 8.b#X 8.an^\	.	.
[8AAn [8AAAn~/	.	.	.	.
.	.	16ff#XJk 16g#X\)	.	.
=47	=47	=47	=47	=47
8AA] 8AAA~/]	.	(8.dd#XL 8.cc#X 8.a#X 8.f##X^/	.	.
4BB#X 4BBB#X~/	.	.	.	.
.	.	16eenJk 16f#X/)	.	.
.	.	(8.b#XL 8.a# 8.gn 8.en^/	.	.
4D#X 4DD#X~/	.	.	.	.
.	.	16cc#XJk 16d#X/)	.	.
.	.	(8.a#L 8.g#X 8.e#X 8.dn^/	.	.
8E#X 8EE#X~/)	.	.	.	.
.	.	16bnJk 16c#X/)	.	]]
=48	=48	=48	=48	=48
!	!	!LO:TX:i:b:t=dolce	!	!
(8qGG-X/	.	.	.	.
[2.G-Xtt\)	.	(8.a-XL 8.g-X 8.e-X 8.d-X^/	.	p
.	.	16cc-XJk 16cn/)	.	.
.	.	(8.a-L 8.fn 8.dn 8.c^/	.	.
.	.	16anJk 16Bn/)	.	.
.	.	(8.fL 8.e- 8.c 8.B-X^/	.	.
.	.	16g-XJk 16An/)	.	.
!!LO:PB:g=original
=49	=49	=49	=49	=49
2.G-Xtt\]	.	(8.a-XL 8.g-X 8.e-X 8.d-X^/	.	.
.	.	16cc-XJk 16cn/)	.	.
.	.	(8.a-L 8.fn 8.dn 8.c^/	.	.
.	.	16anJk 16Bn/)	.	.
.	.	(8.fL 8.e- 8.c 8.B-X^/	.	.
.	.	16g-XJk 16An/)	.	.
=50	=50	=50	=50	=50
*	*	*	*	*^
!	!	!	!	!LO:DY:b=2	!LO:DY:b
8r	.	(8.a-XL 8.g-X 8.e-X 8.d-X^/	.	p	p
*	*	*	*	*v	*v
(4EE-X 4EEE-X~/	.	.	.	.
!	!	!LO:TX:i:b:t=rall.	!	!
.	.	16cc-XJk 16cn/)	.	.
.	.	(8.a-L 8.dn 8.c-X/	.	.
4FFn 4FFFn~/	.	.	.	.
.	.	16b-XJk 16B-X/)	.	.
.	.	(8.fnL 8.d-X 8.B--/	.	.
8GG-X 8GGG-X~/)	.	.	.	.
.	.	16f-X/Jk)	.	.
*	*	*clefF4	*	*
=51	=51	=51	=51	=51
*^	*	*^	*	*
(8.BB--/L	[2.AAA-X\	.	(2e-X 2d-X/	(8.B--\L	.	<
16BB-X/Jk)	.	.	.	16B-X\Jk)	.	.
(8.AA-X/L	.	.	.	(8.A-X\L	.	.
16BB--/Jk)	.	.	.	16B--\Jk)	.	.
(8.GGn/L	.	.	[4en [4cn/	(8.Gn\L	.	.
16AA-/Jk)	.	.	.	16A-\Jk)	.	[
=52	=52	=52	=52	=52	=52	=52
!	!	!	!LO:TX:i:b:t=rall.	!	!	!
2.GG-X/	2.AAA-\]	.	4e/]	2.c] 2.G-X\	.	>
.	.	.	4fn/	.	.	>
.	.	.	4g-X/)	.	.	] pp
*v	*v	*	*	*	*	*
!!LO:PB:g=original
*	*	*clefG2	*	*	*
*	*	*v	*v	*	*
=53||	=53||	=53||	=53||	=53||
*k[b-e-a-d-g-]	*	*k[b-e-a-d-g-]	*	*
*M2/4	*	*M2/4	*	*
*	*	*^	*	*
!	!	!LO:TX:i:a:t=molto espress.	!	!	!
!	!	!LO:TX:B:a:t=Quasi andante.	!	!	!
*tuplet	*	*	*	*	*
(12DDD-/L	.	(4g- [4d- 4A-~/	2F\	.	] p <
12DD-/	.	.	.	.	.
12AA-/J	.	.	.	.	.
12AAn/L	.	4f 4d-] 4An/)	.	.	.
12AAAn/	.	.	.	.	.
12AAA-X/J)	.	.	.	.	]
*	*	*v	*v	*	*
=54||	=54||	=54||	=54||	=54||
*M3/4	*	*M3/4	*	*
*Xtuplet	*	*	*	*
(12GGG-X/L	.	(>4.dd- 4.b-- 4.e- 4.d-~>/	.	>
12GG-/	.	.	.	.
12C/J	.	.	.	.
12E-\L	.	.	.	.
12D-\	.	.	.	.
.	.	8cc 8a-X 8dn/	.	.
12F\J	.	.	.	.
12G-\L	.	4bn 4gn 4e-/)	.	]]
12Gn\	.	.	.	.
12A-\J)	.	.	.	.
=55||	=55||	=55||	=55||	=55||
*M2/4	*	*M2/4	*	*
*	*	*^	*	*
12r	.	(4g-X [4d-X 4A-X~/	2F\	.	<
(12DD-/L	.	.	.	.	.
12AA-/J	.	.	.	.	.
12AAn/L	.	4f 4d-] 4An/)	.	.	.
12AAAn/	.	.	.	.	.
12AAA-X/J)	.	.	.	.	[
*	*	*v	*v	*	*
=56||	=56||	=56||	=56||	=56||
*M3/4	*	*M3/4	*	*
*	*	*^	*	*^
!	!	!	!	!	!LO:HP:b=2	!LO:HP:a
(12GGG-/L	.	(4.dd- 4.d-~/	4.b--\	.	<	<
12GG-/	.	.	.	.	.	.
12C/J	.	.	.	.	.	.
12E-\L	.	.	.	.	.	.
12D-\	.	.	.	.	.	.
!	!	!LO:TX:i:b:t=poco rit.	!	!	!	!
.	.	8ff-XL 8f-X~/	4.b-X\	.	.	[
[12G-\J	.	.	.	.	.	.
12G-\L]	.	8ee- 8e-/	.	.	.	.
12Gn\	.	.	.	.	.	.
.	.	8ddnJ 8dn/)	.	.	.	.
12G#X\J)	.	.	.	.	[	.
*	*	*	*	*	*v	*v
!!LO:LB:g=original
=57	=57	=57	=57	=57	=57
*^	*	*	*	*	*
!	!	!	!LO:TX:i:a:t=(legatissimo)	!	!	!
(4.c#X 4.An/	12Dn\L	.	(4.cc#X 4.an~/	2dn\	.	[ pp <
.	(>12GGGn\	.	.	.	.	.
.	12GGn\J)	.	.	.	.	.
!LO:TX:i:a:t=espress.	!	!	!	!	!	!
.	([4D^\	.	.	.	.	.
8A#X 8F#X/	.	.	8a#X 8f#X/	.	.	.
([4f#X [4Bn 4Gn/	8D\L]	.	[4ff#X [4bn [4gn~\	4ryy	.	[
.	8D#X\J	.	.	.	.	.
=58	=58	=58	=58	=58	=58	=58
8f#]L 8B/])	(4F#X\	.	8ff#]L 8b] 8g\]	4ryy	.	.
8b--J [8e- [8cn/)	.	.	8bb--J [8ee-X [8ccn~\	.	.	>
[4a- 4e-] 4c/]	8G-X\L)	.	[4aa-/	4ee-] 4cc\]	.	.
.	[8Fn\J	.	.	.	.	.
!	!	!	!LO:TX:i:b:t=riten.	!	!	!
4a-_ [4dn [4B-X/	4F\_)	.	8aa-/L]	[4ddn [4b-X\	.	]
.	.	.	[8bb-X/J	.	.	.
*	*	*	*v	*v	*	*
=59	=59	=59	=59	=59	=59
!LO:TX:i:b:t=non arpeggiando	!	!	!LO:TX:i:a:t=molto espress.,soave	!	!
8a-] 8d] 8B-] 8F\]	8ryy	.	8bb-] 8dd] 8b-\])	.	mf
&((4f##X~/	[4.dn [4.En\	.	(4ccc#X 4aa#X 4cc#X~\	.	<
[8g#X/)	.	.	8bbn 8gg#X 8bn\	.	.
8g#/L]	8d]L 8E\]	.	8aanL 8an\	.	.
[8f#X/J	[>8B#XJ [8D#X\	.	[8gg#J [<8ff#X [8g#X\	.	[[
=60	=60	=60	=60	=60	=60
*	*	*	*^	*	*
8f#/L]	8B#] 8D#\]	.	8gg#]L 8ff#] 8g#\]	2ryy	.	.
8e#X/J	4.cn 4.Dn\	.	8bbnJ 8gg#X 8bn\	.	.	.
4f#X/	.	.	8aanL 8ff#X 8an\	.	.	>
.	.	.	8gg#J 8g#X\	.	.	.
4en/	4F#X 4C#X\	.	8.a#X/L	8ff#XL 8f#X\	.	.
.	.	.	.	8eenJ 8en\	.	.
.	.	.	16b/Jk	.	.	]
*	*	*	*v	*v	*	*
!!LO:LB:g=original
=61	=61	=61	=61	=61	=61
8c#X/)&)	8F##X 8AA#X\	.	8dd#X 8cc#X 8d#X/)	.	.
&(4B#X~/	[4.Gn [4.AAn\	.	(4ff#X 4dd# 4f#X~\	.	mp
[8c#/	.	.	8een 8cc# 8en/	.	.
8c#/L]	8G]L 8AA\]	.	8dd#L 8d#/	.	.
[8Bn/J	[8E#XJ [8GG#X\	.	[8a#XJ [8gn [8c#X/	.	.
*v	*v	*	*	*	*
=62||	=62||	=62||	=62||	=62||
*M2/4	*	*M2/4	*	*
*^	*	*^	*	*
8B/L]	8E#]L 8GG#\]	.	8a#]L 8g] 8c#/]	4ryy	.	>
8A#X/J	[8FnJ [8GGn\	.	8eenJ 8cc#X 8en/	.	.	.
4Bn/	4F] 4GG\]	.	8ddnL 8dn/	4bn\	.	.
.	.	.	8cc#XJ 8c#X/	.	.	]
=63	=63	=63	=63	=63	=63	=63
!	!	!	!LO:TX:i:b:t=riten.	!	!	!
4An/&)	4BBn 4FF#X\	.	8bnL 8Bn/	4d#X\	.	<
.	.	.	8anJ 8An/	.	.	[
[4AA-X/	8EE-X\L	.	8a-XL 8A-X/	4cn\	.	>
.	8EE--\J	.	8g-XJ 8G-X/)	.	.	]
=64	=64	=64	=64	=64	=64	=64
4AA-/]	(8DD-X\L	.	(>4g-X [>4d-X (>4A-X~/	2Fn\	.	mp <
.	8AA-X\J	.	.	.	.	.
8AAn/	12AA\L	.	4fn 4d-] 4An/))	.	.	.
.	12AAAn\	.	.	.	.	.
8r	.	.	.	.	.	.
.	12AAA-X\J)	.	.	.	.	[
*v	*v	*	*	*	*	*
*	*	*v	*v	*	*
!!LO:LB:g=original
=65||	=65||	=65||	=65||	=65||
*M3/4	*	*M3/4	*	*
*^	*	*	*	*
*tuplet	*	*	*	*	*
!	!	!	!LO:TX:i:a:t=dolcissimo	!	!
!	!	!	!LO:TX:t=P:problem=bemol w nawiasie	!	!
(<12GGG-/L	6GGG-\	.	(>4.dd- 4.g- 4.e- 4.B-X~/	.	pp
12GG-/)	.	.	.	.	.
(<12DD-/J	6DD-\	.	.	.	.
12D-/L)	.	.	.	.	.
(<12GG-/	6GG-\	.	.	.	.
.	.	.	8cc 8a- 8c/	.	>
12G-/J)	.	.	.	.	.
!LO:TUP:b	!	!	!LO:TX:i:b:t=poco rit.	!	!
(<12BB-/L	4BB-\	.	4b- 4g- 4d-/)	.	]]
12B-/	.	.	.	.	.
12A-/J)	.	.	.	.	.
=66	=66	=66	=66	=66	=66
*	*	*	*	*	*^
!	!	!	!	!	!LO:DY:b	!LO:DY:b=2
8r	(2.G-^\	.	8r	.	p	sf
*	*	*	*	*	*v	*v
!	!	!	!LO:TX:i:a:t=avviando	!	!
8g- 8e- 8B-/	.	.	(8gg- 8ee- 8b-~\	.	.
8g-L 8e- 8B-^/	.	.	8gg-L 8ee- 8b-^\	.	.
8dnJ 8c 8An/	.	.	8ddnJ 8cc 8an~\	.	.
8dL 8c 8A/	.	.	8ddL 8cc 8a~\	.	<
8e-XJ 8c-X 8A-X/	.	.	8ee-XJ 8cc-X 8a-X~\)	.	[[
*v	*v	*	*	*	*
=67	=67	=67	=67	=67
*Xtuplet	*	*	*	*
12f#XL 12Bn 12Gn/)	.	(4.ff#X 4.bn 4.gn^\	.	.
12GGGn/	.	.	.	.
12GGn/J	.	.	.	.
12Cn\L	.	.	.	.
12D#X\	.	.	.	.
.	.	8dd#X 8d#X/	.	.
12E#X\J	.	.	.	.
12F#X\L	.	4een 4ccn 4en/)	.	.
12G\	.	.	.	.
12G#X\J	.	.	.	.
=68	=68	=68	=68	=68
*^	*	*	*	*^
!	!	!	!	!	!LO:DY:b	!
[2A-X^/	8r	.	8r	.	mp	sf
*	*	*	*	*	*v	*v
.	(>8en 8Gn~\	.	(8eeen 8ggn 8een~\	.	<
.	8eL 8G^\	.	8eeeL 8gg 8ee^\	.	.
.	8dnJ 8Fn~\	.	8bbnJ 8aa-X 8bn~\	.	.
8A-/L]	8dL 8F~\	.	8bbL 8aa- 8b~\	.	.
8Gn/J	8cnJ 8En~\)	.	8cccnJ 8gg 8ccn~\)	.	[[
*v	*v	*	*	*	*
!!LO:LB:g=original
=69	=69	=69	=69	=69
*	*	*^	*	*
(12GGG#X/L	.	2.cccn/	(>4.eeen 4.een^\	.	sf p
12GG#X/	.	.	.	.	<
12Cn/J	.	.	.	.	.
12Dn\L	.	.	.	.	.
12E-X\	.	.	.	.	.
.	.	.	8eee-X 8ee-X\	.	.
12e-X\J	.	.	.	.	.
12Fn\L	.	.	[>4dddn [4ddn\	.	.
12F#X\	.	.	.	.	.
12f#X\J)	.	.	.	.	[
=70	=70	=70	=70	=70	=70
(12AAAn/L	.	2ff#X/	8ddd]L 8dd\]	.	>
12AAn/	.	.	.	.	.
!	!	!LO:TX:i:a:t=senza riten.	!	!	!
.	.	.	8ccc#XJ 8cc#X\	.	.
12F#X/J	.	.	.	.	.
12Gn\L	.	.	4.cccn 4.ccn\	.	.
12gn\	.	.	.	.	.
12G#X\J	.	.	.	.	.
12An\L	.	4ffn/	.	.	.
12an\J)	.	.	.	.	.
.	.	.	8bbn 8bn\)	.	.
12r	.	.	.	.	]
*	*	*v	*v	*	*
=71	=71	=71	=71	=71
8BB-XL 8BBB-X^\	.	8r	.	<
(8B-XJ 8D-X~\	.	(8bb-X 8ggn 8b-X~\	.	.
8B-L 8D-^\	.	8bb-L 8gg 8b-^\	.	.
8AnJ 8Cn~\	.	8ff#XJ 8ddn 8f#X~\	.	.
8AL 8C~\	.	8ff#L 8dd 8f#~\	.	.
8A-XJ 8C-X~\)	.	8ggJ 8ee-X 8gn~\)	.	[[
=72	=72	=72	=72	=72
*	*	*^	*	*
12r	.	2.gg-X/	(>4.bb-X 4.b-X\	.	sf <
(12CCC-X/L	.	.	.	.	.
12CC-X/J	.	.	.	.	.
12DDn/L	.	.	.	.	.
12EE-X/	.	.	.	.	.
.	.	.	8aan 8an\	.	.
12E-/J	.	.	.	.	.
12EEn/L	.	.	[>4aa-X [4a-X\	.	.
12FFn/	.	.	.	.	.
12Fn/J)	.	.	.	.	[
!!LO:LB:g=original
=73	=73	=73	=73	=73	=73
(12CCCn/L	.	4ee-X/	8aa-]L 8a-\]	.	<
12CCn/	.	.	.	.	.
!	!	!LO:TX:i:a:t=poco riten.	!	!	!
.	.	.	8ggnJ 8gn\	.	.
12FFn/J	.	.	.	.	.
12GG-X/L	.	2ee- 2a-/	4.gg-X 4.g-X\	.	.
12G-X/	.	.	.	.	.
12GGn/J	.	.	.	.	.
12AA-X/L	.	.	.	.	.
12AAn/	.	.	.	.	.
.	.	.	8ffn 8fn\)	.	.
12An/J)	.	.	.	.	[
*	*	*v	*v	*	*
=74	=74	=74	=74	=74
!	!	!LO:TX:i:a:t=a tempo (avviv.)	!	!
(12CCC#X'/L	.	(12eenL 12en'/	.	pp
!	!	!LO:TX:i:b:t=(non legato)	!	!
12CC#X'/	.	12ggn 12gn'/	.	.
12GGn'/J	.	12dd#XJ 12b-X'/	.	.
12BB-X'/L	.	12eeL 12e'/	.	.
12D#X'/	.	12b- 12f#X'/	.	.
12En'/J	.	12anJ 12g'/	.	.
12Fn'/L	.	12ddnL 12fn'/	.	.
12FF'/	.	12ee 12cc#X'/	.	.
12DDn'/J)	.	12ffnJ 12dd'/)	.	.
=75	=75	=75	=75	=75
(12CC#X'/L	.	(12ggnL 12b-X'\	.	<
12C#X'/	.	12gggn 12gg'\	.	.
12Gn'/J	.	12ddd#XJ 12bb-X'\	.	.
12B-X'\L	.	12eeenL 12een'\	.	.
12d#X'\	.	12bb- 12ff#X'\	.	.
12en'\J	.	12aanJ 12gg'\	.	.
12fn'\L	.	12dddnL 12ffn\)	.	<
12Fn'\J	.	(12eee-X 12cccn\	.	.
12r)	.	12eeenJ 12ccc#X\	.	[[
!!LO:PB:g=original
=76||	=76||	=76||	=76||	=76||
*M4/4	*	*M4/4	*	*
*^	*	*	*	*
(12DDnL 12DDDn/	2ryy	.	12fffnL 12dddn'\)	.	f
12BBB-X/)	.	.	(12ddddn 12dddn'\	.	.
(12BB-XJ 12BBB-/	.	.	12aaan'\J	.	.
12FFn/L)	.	.	12cccc#XL 12ccc#X'\	.	.
(12Fn 12FF/	.	.	12ggg#X'\	.	.
12Dn/J)	.	.	12gggnJ 12ggn'\	.	.
(12dnL 12D/	12ryy	.	12ggg-X'\L	.	.
12B-X/)	12ryy	.	12fffn 12ffn'\	.	.
*clefG2	*	*	*	*	*
!	!	!	!LO:TX:i:b:t=riten.	!	!
(12b-XJ 12B-X/	12ryy	.	12ccc#X'\J	.	.
12dn/L)	12ryy	.	12dddnL 12ddn'\	.	>
(<12ddn 12d/	&[6d\	.	12bb-X'\	.	.
12fn/J)	.	.	12aanJ 12an'\)	.	]]
*v	*v	*	*	*	*
=77||	=77||	=77||	=77||	=77||
*M3/4	*	*M3/4	*	*
*	*	*^	*	*^
!	!	!LO:TX:i:b:t=espress.	!	!	!LO:DY:b	!LO:DY:b=2
12g#XL 12en 12d-^^/&]	.	4.gg#X^/	2.een 2.bn\	.	mf	sf
*	*	*	*	*	*v	*v
*clefF4	*	*	*	*	*
(<12DDDn/	.	.	.	.	.
12DDn/J	.	.	.	.	.
12GG#X/L	.	.	.	.	.
12BBn/	.	.	.	.	.
.	.	(8bbn^/	.	.	.
12En/J	.	.	.	.	.
12G#X\L	.	[4bn/)	.	.	.
12Bn\	.	.	.	.	.
12en\J	.	.	.	.	.
=78	=78	=78	=78	=78	=78
*^	*	*	*	*	*
!	!	!	!LO:TX:i:b:t=m.s.	!	!	!
8ryy	8g#X>\)	.	8b/]	8ryy	.	.
!	!	!	!LO:TX:i:a:t=poco agitato	!	!	!
(8dn 8An~/	8Fn\	.	(8ddn 8an~/	8fn\	.	.
8dL 8A^/	4F\	.	8ddL 8a^/	4f\	.	.
8A#XJ 8G#X~/	.	.	8a#XJ 8g#X~/	.	.	.
8A#L 8G#~/	4En\	.	8a#L 8g#~/	4en\	.	.
8BnJ 8Gn~/)	.	.	8bnJ 8gn~/)	.	.	.
*v	*v	*	*	*	*	*
!!LO:LB:g=original
=79	=79	=79	=79	=79	=79
12dnL 12E-X\	.	(4ddn/	(4gn 4e-X\	.	<
(12EEE-X\	.	.	.	.	.
[<12EE-X\J	.	.	.	.	.
12EE-/L]	.	8.ccn/L)	8a-X 8e- 8cn\)	.	.
12AA-X/	.	.	.	.	.
.	.	.	8r	.	[
12Cn/J	.	.	.	.	.
.	.	(16ee-X^/Jk	.	.	.
12E-X\L	.	4e-X/)	4r	.	.
12A-X\	.	.	.	.	.
12cn\J	.	.	.	.	.
*	*	*v	*v	*	*
=80	=80	=80	=80	=80
8e-X\)	.	8r	.	<
(8f#X 8c#X 8An~\	.	(8ff#X 8cc#X 8an~\	.	.
8f#L 8c# 8A^\	.	8ff#L 8cc# 8a^\	.	.
8dnJ 8cn 8A-X~\	.	8ddnJ 8ccn 8a-X~\	.	.
8dL 8c [8A-~\	.	(<8ddL 8cc 8a-~\	.	.
8e-XJ 8c-X 8A-~\])	.	8ee-XJ 8cc-X 8a-~\))	.	.
=81	=81	=81	=81	=81
12f#XL 12Bn 12Gn^\	.	4ff#X 4bn 4gn\	.	.
(12GGGn\	.	.	.	.
[<12GGn\J	.	.	.	.
12GG/L]	.	8een:L 8ccn: 8g: 8cn:/	.	.
12Cn/	.	.	.	.
.	.	16r	.	.
12En/J	.	.	.	.
.	.	(16ggn/Jk	.	.
12G\L	.	8g^\L)	.	.
12cn\	.	.	.	.
.	.	16r	.	.
12en\J)	.	.	.	.
.	.	(16cccn\Jk	.	.
!!LO:LB:g=original
=82	=82	=82	=82	=82
8GG#X 8GGG#X^/	.	16ccn^\)	.	<
.	.	16r	.	.
16r	.	(8eeen 8cccn 8een~\	.	.
(16cn\	.	.	.	.
8Cn^\L)	.	8eeeL 8ccc 8ee^\	.	.
16r	.	8bbnJ 8gg#X 8bn~\	.	.
(16en\Jk	.	.	.	.
4En\)	.	8bbL 8gg# 8b~\	.	.
!	!	!LO:TX:i:a:t=sempre piu agitato	!	!
.	.	8cccnJ 8ggn 8ccn~\)	.	.
=83	=83	=83	=83	=83
8AAnL 8AAAn\	.	(4eeen 4cccn 4ff#X 4een^\	.	.
(8f#XJ 8F#X^\	.	.	.	.
8f#L 8F#^\	.	8ddd#XL 8bb#X 8aan 8dd#X\)	.	.
8dnJ 8Dn^\	.	16r	.	.
.	.	(16fff#X\Jk	.	.
8dL 8D^\	.	8ff#^\L)	.	.
8d#XJ 8D#X^\)	.	16r	.	.
.	.	(16fffn\Jk	.	.
=84	=84	=84	=84	=84
8BB-X 8BBB-X/	.	16aan^\)	.	.
.	.	16r	.	.
*	*	*8va	*	*
16r	.	(8aaan 8ggg-X 8eee-X 8ccc 8aan~\	.	.
(16gn\	.	.	.	.
8Gn^\L)	.	8aaaL 8ggg- 8eee- 8ccc 8aa^\	.	.
16r	.	8fff#XJ 8dddn 8aa 8ff#X~\	.	.
(16b-X\Jk	.	.	.	.
4B-X^\)	.	8fff#L 8eee- 8aa 8ff#~\	.	.
.	.	8gggnJ 8eee- 8bb-X 8ggn~\)	.	.
!!LO:LB:g=original
=85	=85	=85	=85	=85
8BBnL 8BBBn^\	.	(>4aaan [<4fffn [<4dddn 4aan^\	.	.
(8fnJ 8Fn^\	.	.	.	.
8fL 8F^\	.	8ggg#XL 8fff] 8ddd] 8gg#X\)	.	.
8c#XJ 8C#X^\	.	16r	.	.
.	.	(16bbbn\Jk	.	.
8c#L 8C#^\	.	8bbn^\L)	.	.
8dnJ 8Dn^\)	.	16r	.	.
.	.	(16ddddn\Jk	.	.
=86	=86	=86	=86	=86
(8CCnL 8CCCn^/	.	16dddn\)	.	ff
*	*	*X8va	*	*
!	!	!LO:TX:i:b:t=sempre\nmarcato,con passione	!	!
.	.	16r	.	.
8GG#XJ 8GGG#X^/	.	(8dddn 8bbn 8gg#X 8een 8ddn^\	.	.
!	!	!LO:TX:i:a:t=non accel. il tempo	!	!
8CnL 8CCn^/	.	8dddL 8bb 8gg# 8ee 8dd^\	.	.
8DnJ 8DDn^/	.	8bbJ 8gg# 8ee 8bn^\	.	.
8EnL 8EEn^/	.	8bbL 8gg# 8ee 8b^\	.	.
8G#XJ 8GG#^/)	.	8cccnJ 8gg# 8ee 8ccn^\	.	.
=87	=87	=87	=87	=87
(8CC#XL 8CCC#X^/	.	8bbnL 8ggn 8een 8bn^\	.	.
8GGnJ 8GGGn^/	.	8aa#XJ 8gg 8ee 8a#X^\	.	.
8AA#XL 8AAA#X^/	.	8eeenL 8ee^\	.	.
8C#XJ 8CC#X^/	.	8aanJ 8ee 8cc#X 8an^\	.	.
8EnL 8EEn^/	.	8gg#XL 8ee 8cc# 8g#X^\	.	.
8A#XJ 8AA#X^/)	.	8ggnJ 8ee 8cc# 8gn^\)	.	.
!!LO:LB:g=original
=88	=88	=88	=88	=88
(8DDnL 8DDDn^/	.	8r	.	.
8FFnJ 8FFFn^/	.	(8gg-X 8ddn 8b-X 8g-X^\	.	.
8BB-XL 8BBB-X^/	.	8gg-L 8dd 8b- 8g-^\	.	.
8C#XJ 8CC#X^/	.	8eenJ 8dd 8b- 8en^\	.	.
8DnL 8DDn^/	.	8eeL 8dd 8b- 8e^\	.	.
8FnJ 8FFn^/)	.	8ffnJ 8dd 8b- 8fn^\	.	.
=89	=89	=89	=89	=89
(8DD#XL 8DDD#X^/	.	8cc#XL 8an 8f#X 8c#X^/	.	.
!	!	!LO:TX:i:b:t=poco rit.	!	!
8FF#XJ 8FFF#X^/	.	8b#XJ 8a 8f# 8B#X^/	.	.
8AAnL 8AAAn^/	.	8ff#XL 8f#^/	.	.
8BBnJ 8BBBn^/	.	8aJ 8f# 8d#X 8An^/	.	.
8BB#XL 8BBB#X^/	.	8g#XL 8f# 8d# 8G#X^/	.	.
8D#XJ 8DD#X^/)	.	8gnJ 8d# 8Gn^/)	.	.
=90	=90	=90	=90	=90
!	!	!LO:TX:i:a:t=molto passionato\nnon accel.	!	!
8FFnL 8FFFn^/	.	(4g-X [4d-X 4An ([4Fn^/	.	.
!LO:TX:i:b:t=pesante	!	!	!	!
8D-XJ 8DD-X^/	.	.	.	.
8D-L 8DD-^/	.	8fL 8d-] 8A-X 8F\]))	.	ff <
8GGnJ 8GGGn^/	.	16r	.	.
.	.	(16aa-X\Jk	.	.
8GGL 8GGG^/	.	8a-X^\L)	.	.
8AA-XJ 8AAA-X^/	.	16r	.	.
.	.	(16ddd-X\Jk	.	[[
=91	=91	=91	=91	=91
(8qGG-X 8qGGG-X/	.	.	.	.
4.d-X 4.B-- 4.D-X^\)	.	4.ddd- 4.bb-- 4.ee-X 4.dd-^\)	.	.
8cn 8A-X 8Dn~\	.	8cccn 8aa-X 8ddn 8ccn~\	.	.
4B-X 4Gn 4E-X~\	.	4bbn 4ggn 4cc#X 4bn~\	.	.
!!LO:LB:g=original
=92	=92	=92	=92	=92
*	*	*	*	*^
!	!	!	!	!LO:HP:b	!
8AA-XL 8AAA-X^/	.	(4g-X [4d-X 4An 4Fn^/	.	<	ff
8FJ 8FF^/	.	.	.	.	.
8FL 8FF^/	.	8fL 8d-] 8A-X\)	.	.	.
8CJ 8CC^/	.	16r	.	.	.
.	.	(16aa-\Jk	.	.	.
8CL 8CC^/	.	8a-X^\L)	.	.	.
8D-J 8DD-^/	.	16r	.	.	.
.	.	((16ddd-X\Jk	.	.	.
=93	=93	=93	=93	=93	=93
!	!	!	!	!	!LO:HP:a
(8qAAn 8qAAAn/	.	.	.	.	<
*^	*	*	*	*	*
(4.An 4.C#X 4.AA/)	2ryy	.	4.ccc#X 4.aan 4.cc#X^\)	.	.	.
!	!	!	!LO:TX:i:b:t=riten.	!	!	!
8A#XL 8Dn 8AA#X~/	.	.	8eeenL 8ggn 8een~\	.	[	.
*	*	*	*	*	*v	*v
8Bn 8D#X 8BBn~/	8ryy	.	8ddd#X 8gg#X 8dd#X~\	.	.
8AnJ 8F#X~/	16Cn\LL	.	8dddnJ 8ff#X 8ddn~\)	.	.
.	16C#X\JJ)	.	.	.	.
=94	=94	=94	=94	=94	=94
*	*	*	*^	*	*
!	!	!	!LO:TX:i:a:t=con gran espr.	!	!	!LO:HP:a=1
(<4.an: 4.c#X: 4.An: 4.Dn:/	8.D:\L	.	(4.ccc#X 4.aan 4.cc#X/	8.cc#\L	.	<
.	16GGnJk 16GGGn\	.	.	16Gn\Jk	.	ff
.	4.DDn 4.DDDn^^\	.	.	4.dn 4.Dn^^\	.	.
!	!	!	!LO:TX:i:b:t=rallent.	!	!	!
8f#X 8A#X 8F#X/	.	.	8aa#X 8ff#X 8a#X/	.	.	.
[<4bn 4f# [<4Bn 4Gn/	.	.	[4fff#X [4bbn [4gg-/	.	.	.
.	((8DD#X 8DDD#X\	.	.	(<(<8d#X 8D#X\	.	[
=95	=95	=95	=95	=95	=95	=95
8b]L 8B/])	4.FF#X 4.FFF#X\))	.	8fff#]L 8bb] 8gg-/])	4.f#X 4.F#X\))	.	<
(8anJ 8f#X 8d#X 8B#X 8An/	.	.	(>8aaanJ 8fff#X 8ddd#X 8bb#X 8aan/	.	.	.
4g#X 4f# 4d# 4B# 4G#X^/	.	.	4ggg#X 4fff# 4ddd# 4bb# 4gg#X^/	.	.	.
.	4.FFn 4.FFFn^\	.	.	4.fn 4.Fn^\	.	.
8g#L 8e#X 8dn 8G#/	.	.	8ggg#L 8eee#X 8dddn 8gg#/	.	.	.
8a#XJ 8A#X/)	.	.	8aaa#XJ 8aa#X/)	.	.	.
*	*	*	*v	*v	*	*
!!LO:PB:g=original
=96	=96	=96	=96	=96	=96
!	!	!	!LO:TX:i:a:t=a tempo,con fuoco	!	!LO:DY:b=2
8EEnL 8EEEn/	4ryy	.	8r	.	sf
*clefG2	*	*	*tuplet	*	*
!	!	!	!	!	!LO:HP:b=2
(>8gnJ 8en 8c#X 8Gn/	.	.	((24ccc#X\LL	.	fff <
!	!	!	!LO:TX:i:b:t=precipitando	!	!
.	.	.	24eeen\	.	.
.	.	.	24cccc#X\JJ)	.	.
8g#XL 8G#X~/	2fn 2dn\	.	(24bbbn\LL	.	.
.	.	.	24dddn\	.	.
.	.	.	24bbn\J)	.	.
8anJ 8An~/	.	.	(24aanL\	.	.
.	.	.	24ddd\	.	.
.	.	.	24aaan\JJ)	.	.
8a#XL 8A#X~/	.	.	(24ggg#X\LL	.	.
.	.	.	24ddd\	.	.
.	.	.	24gg#X\J)	.	.
8bnJ 8Bn~/)	.	.	(24ggnL\	.	.
.	.	.	24ddd\	.	.
.	.	.	24gggn\JJ)	.	[[
*v	*v	*	*	*	*
=97	=97	=97	=97	=97
*	*	*Xtuplet	*	*
!	!	!	!	!LO:HP:b=2
(8.b#XL 8.g#X 8.f#X 8.B#^^/	.	24ff#X\LL	.	<
.	.	24bb#X\	.	.
.	.	24ggg#XJ\	.	.
.	.	24fff#XL\	.	.
.	.	24ccc#X\	.	.
16cc#XJk 16c#X/	.	.	.	.
.	.	24ffn\JJ	.	.
8ddnL 8g# 8en 8dn^^/)	.	24een\LL	.	.
.	.	24aa#X\	.	.
.	.	24eeenJ\	.	.
*clefF4	*	*	*	*
8EEnJ 8EEEn^^/	.	24ddd#XL\	.	.
.	.	24bbn\	.	.
.	.	24dd#X\JJ	.	.
*clefG2	*	*	*	*
8dd#XL 8an 8f#X 8d#X/	.	24ddn\LL	.	.
.	.	24aan\	.	.
.	.	24dddnJ\	.	.
*clefF4	*	*	*	*
(8EJ 8EEn/	.	24ccc#XL\	.	.
.	.	24ff#X\	.	.
.	.	24cc#X\JJ)	.	[[
!!LO:LB:g=original
=98	=98	=98	=98	=98
*^	*	*	*	*
8EEnL 8EEEn^^/)	4ryy	.	8r	.	.
(>8GnJ 8En 8C#X 8GGn~/	.	.	(24cc#X\LL	.	ff
.	.	.	24een\	.	.
.	.	.	24ccc#X\JJ	.	.
8G#XL 8GG#X~/	2Fn 2Dn\	.	24bbn\LL	.	.
.	.	.	24ddn\	.	.
.	.	.	24bnJ\	.	.
8AnJ 8AAn/	.	.	24anL\	.	.
.	.	.	24dd\	.	.
.	.	.	24aan\JJ	.	.
8A#XL 8AA#X~/	.	.	24gg#X\LL	.	.
.	.	.	24dd\	.	.
.	.	.	24g#XJ\	.	.
8BnJ 8BBn~/)	.	.	24gnL\	.	.
.	.	.	24dd\	.	.
.	.	.	24ggn\JJ	.	[[
*v	*v	*	*	*	*
=99	=99	=99	=99	=99
(8.B#XL 8.G#X 8.F#X 8.BB#X\	.	24f#X\LL	.	.
.	.	24b#X\	.	.
.	.	24gg#XJ\	.	.
.	.	24ff#XL\	.	.
.	.	24cc#X\	.	.
16c#XJk 16C#X^^\	.	.	.	.
.	.	24fn\JJ	.	.
8dnL 8G# 8En 8Dn/)	.	24en/LL	.	<
.	.	24a#X/	.	.
.	.	24eenJ/	.	.
8EEn^^>J 8EEEn/	.	24dd#XL/	.	.
.	.	24bn/	.	.
.	.	24d#X/JJ	.	.
8d#XL 8An 8F#X 8D#X^^\	.	24dn/LL	.	[
.	.	24an/	.	.
.	.	24ddnJ/	.	.
(8EJ 8EE\	.	24cc#XL/	.	.
.	.	24f#X/	.	.
.	.	24c#X/JJ)	.	.
!!LO:LB:g=original
=100	=100	=100	=100	=100
8EEnL 8EEEn/)	.	8r	.	f >
(8F##XJ 8D#X 8FF##X/	.	(>24d#X/LL	.	.
.	.	24a#X/	.	.
.	.	24dd#X/JJ	.	.
8G#XL 8En 8GG#X\	.	24ddn/LL	.	.
.	.	24bn/	.	.
.	.	24dnJ/	.	.
8AnJ 8D#X 8AAn\	.	24c#XL/	.	.
.	.	24f#X/	.	.
!	!	!LO:TX:i:a:t=rit.	!	!
.	.	24cc#X/JJ	.	.
8G#XL [<8E 8AA#X\	.	24ccn/LL	.	.
.	.	24g#X/	.	.
.	.	24cnJ/	.	]
!	!	!	!	!LO:HP:t=dimin.
8GnJ 8E] 8BBn\)	.	24BnL/	.	>
.	.	24en/	.	.
.	.	24bn/JJ)	.	.
=101	=101	=101	=101	=101
*	*	*^	*	*
!	!	!LO:TX:i:a:t=calando	!	!	!
8EEnL 8EEEn^\	.	8.a#X/L	8f#X 8c#X 8A#X\	.	.
(<24C#X\L	.	.	8r	.	.
24A#X\	.	.	.	.	.
.	.	(<16cc#X/Jk	.	.	.
24c#X\JJ	.	.	.	.	.
!	!	!LO:TX:i:a:t=ten.	!	!	!
24B#X\LL	.	[2c#/)	2ryy	.	>
24G#X\	.	.	.	.	.
24BB#XJ\	.	.	.	.	.
24BBnL\	.	.	.	.	.
24Gn\	.	.	.	.	.
24Bn\JJ	.	.	.	.	.
24A#X\LL	.	.	.	.	.
!	!	!LO:TX:i:a:t=riten.	!	!	!
24F#X\	.	.	.	.	.
24AA#XJ\	.	.	.	.	.
24AAnL\	.	.	.	.	.
24C#X\	.	.	.	.	.
24An\JJ	.	.	.	.	]
!!LO:LB:g=original
=102	=102	=102	=102	=102	=102
*^	*	*	*	*	*
*	*^	*	*	*	*	*
24G#X/LL	8ryy	8ryy	.	8c#/L]	2ryy	.	.
24BB#X/	.	.	.	.	.	.	.
24GG#XJ/	.	.	.	.	.	.	.
!	!	!	!	!LO:TX:i:b:t=dim. e rall.	!	!	!
&[24GGnL/	8GG\	24ryy	.	(>8enJ 8Bn 8Gn~>/	.	.	.
&&[24BBn/	.	12BB\	.	.	.	.	.
24D#X/JJ	.	.	.	.	.	.	.
(<8EnL 8BBn&&] 8GGn/&])	4ryy	4ryy	.	8eL 8B 8G~>/	.	.	.
8BB#XJ 8AA#X 8FF#X/	.	.	.	8B#XJ 8A#X 8F#X~>/	.	.	.
8BB#L 8AA#/	8FF#\L	8ryy	.	8B#L 8A#~/	8A-X\L	.	.
16C#X/L	8FFn\J	24AAn\LL	.	16c#XL 16An/	8A\J	.	.
.	.	24BB-X\	.	.	.	.	.
16Dn/JJ	.	.	.	16dnJJ 16A-X/)	.	.	.
.	.	24BBn\JJ)	.	.	.	.	.
*v	*v	*v	*	*	*	*	*
*	*	*v	*v	*	*
=103||	=103||	=103||	=103||	=103||
*k[]	*	*k[]	*	*
*M2/2	*	*M2/2	*	*
*met(c|)	*	*met(c|)	*	*
*	*	*^	*	*
*tuplet	*	*	*	*	*
!	!	!LO:TX:i:a:t=poco sostenuto	!	!	!
!	!	!LO:TX:B:a:t=Quasi doppio movimento.	!	!	!
12E-XL 12Cn 12EE-X/	.	4.e-X/	2cn 2Gn\	.	pp
(12EEE-X/	.	.	.	.	.
12EE-/J)	.	.	.	.	.
12r	.	.	.	.	.
(12EE-/L	.	.	.	.	.
.	.	8gn^</	.	.	.
12E-/J)	.	.	.	.	.
!	!	!LO:TX:i:a:t=ten.	!	!	!
12r	.	((>[2G/	2ryy	.	.
(12EEE-/L	.	.	.	.	.
12EE-/J)	.	.	.	.	.
12r	.	.	.	.	.
(12EE-/L	.	.	.	.	.
!	!	!LO:TX:i:a:t=misterioso	!	!	!
12E-/J)	.	.	.	.	.
=104	=104	=104	=104	=104	=104
*Xtuplet	*	*	*	*	*
!	!	!LO:TX:i:a:t=dolce marcato	!	!	!
12r	.	4c/	4G\]	.	pp
(12EEE-X/L	.	.	.	.	.
12EE-X/J))	.	.	.	.	.
12r	.	4d/	4F#X\	.	.
(12EE-/L	.	.	.	.	.
12E-X/J)	.	.	.	.	.
12r	.	4e-X/	4Bn\	.	.
(12EEE-/L	.	.	.	.	.
12EE-/J)	.	.	.	.	.
12r	.	4g-X/	4B-X\	.	.
(12EE-/L	.	.	.	.	.
12E-/J)	.	.	.	.	.
!!LO:LB:g=original
=105	=105	=105	=105	=105	=105
12r	.	4a/	4A\	.	.
(12EEE-X/L	.	.	.	.	.
12EE-X/J)	.	.	.	.	.
12r	.	8cc'/)	8G#X'\)	.	.
(12EE-/L	.	.	.	.	.
.	.	8ryy	8r	.	.
12E-X/J)	.	.	.	.	.
*	*	*clefF4	*	*	*
!	!	!LO:TX:i:b:t=ten.	!	!	!
12r	.	(2G#X^/	([2F#X\	.	sf
(12DDD/L	.	.	.	.	.
12DD/J)	.	.	.	.	.
12r	.	.	.	.	.
(12DD/L	.	.	.	.	.
12D/J)	.	.	.	.	.
=106	=106	=106	=106	=106	=106
12r	.	4A/	4F#\]	.	pp
(12DDD/L	.	.	.	.	.
12DD/J)	.	.	.	.	.
12r	.	4B-X/	4Fn\	.	.
(12DD/L	.	.	.	.	.
12D/J)	.	.	.	.	.
12r	.	4d/	4Bn\	.	.
(12DDD/L	.	.	.	.	.
12DD/J)	.	.	.	.	.
!	!	!LO:TX:t=P:problem=kasownik w nawiasie	!	!	!
12r	.	4fn/	4A\	.	.
(12DD/L	.	.	.	.	.
12D/J)	.	.	.	.	.
=107	=107	=107	=107	=107	=107
12r	.	4g#X/	4G#X\	.	.
(12DDD/L	.	.	.	.	.
12DD/J)	.	.	.	.	.
12r	.	8b'/)	8Gn'\)	.	.
(12DD/L	.	.	.	.	.
.	.	8ryy	8r	.	.
12D/J)	.	.	.	.	.
!	!	!LO:TX:i:b:t=ten.	!	!	!
12r	.	(2Gn^/	&((2Fn\	.	sf
(12CCC#X/L	.	.	.	.	.
12CC#X/J)	.	.	.	.	.
12r	.	.	.	.	.
(12CC#/L	.	.	.	.	.
12C#X/J)	.	.	.	.	.
!!LO:LB:g=original
=108	=108	=108	=108	=108	=108
!	!	!LO:TX:i:a:t=poco avviv.	!	!	!
12r	.	4G#X/	[4E#X\&)	.	p
(12CCC#X/L	.	.	.	.	<
12CC#X/J)	.	.	.	.	.
12r	.	8A/L	8E#\L]	.	.
(12CC#/L	.	.	.	.	.
.	.	8A#X/J	8F#X\J	.	.
12C#X/J)	.	.	.	.	.
12r	.	[4c#X/	4An\	.	.
!LO:TX:i:t=poco rit.	!	!	!	!	!
&((>12C#\L	.	.	.	.	[
[<12c#X\J)	.	.	.	.	.
4c#\_	.	8.c#/L]	8A#X\)	.	.
.	.	.	16ryy	.	.
*	*	*clefG2	*	*	*
.	.	16bJk 16B^/)	16ryy	.	.
=109	=109	=109	=109	=109	=109
!LO:TX:i:b:t=legatissimo	!	!	!	!	!
12c#\L]	.	(4b 4B^/	4.f#X\	.	>
12e\	.	.	.	.	.
12e-X\J	.	.	.	.	.
!	!	!LO:TX:i:a:t=molto espress. e dolce	!	!	!
12dn\L	.	(4a#X (4A#X/	.	.	]
12G#X\	.	.	.	.	.
.	.	.	8e#X\	.	.
12An\J	.	.	.	.	.
12c#X\L	.	4.a# 4.A#/)))	8en\L	.	.
12G#X\	.	.	.	.	.
.	.	.	8d#X\	.	.
12Gn\J	.	.	.	.	.
12F#X\L	.	.	8dn\	.	.
12Fn\	.	.	.	.	.
.	.	8ccn/	8d-X\J	.	.
12En\J	.	.	.	.	.
=110	=110	=110	=110	=110	=110
*	*	*	*^	*	*
12E-X/L&)	.	&&((12b-X/L)	2cn\	&(<4g-X\	.	mp >
(<12FFFn/	.	(12ee-X/	.	.	.	.
12FFn/J	.	12ddn/J	.	.	.	.
8Cn\L)	.	12dd-X/L	.	6a 6f~\&)&&)	.	.
.	.	12gn/	.	.	.	.
([8Fn^\J	.	.	.	.	.	.
.	.	12a-X/J	.	12en\	.	.
12F\L]	.	4.b-X~/	2c-X\	(8d\L	.	] <
12A-X\	.	.	.	.	.	.
.	.	.	.	8c#X\J	.	.
12Gn\J	.	.	.	.	.	.
12G-X\L	.	.	.	8d\L	.	.
12C-X\	.	.	.	.	.	.
.	.	8an/	.	8e-X\J)	.	.
12Cn\J	.	.	.	.	.	.
!!LO:PB:g=original
=111	=111	=111	=111	=111	=111	=111
12D-X/L)	.	(12a-X/L)	2B-X\	4f-X\	.	[ p
(12EEE-X/	.	(12dd-X/	.	.	.	.
12EE-X/J	.	12ccn/J	.	.	.	.
8BB-X/L)	.	12cc-X/L	.	6g 6e-X~\)	.	.
.	.	12fn/	.	.	.	.
([>8E-X^/J	.	.	.	.	.	.
.	.	12g-X/J	.	12g- 12dn\	.	.
12E-\L]	.	4.a-X~/	&&&(2An\	8cn\L	.	.
12G-X\	.	.	.	.	.	.
.	.	.	.	8Bn\J	.	.
12Fn\J	.	.	.	.	.	.
!	!	!	!	!	!	!LO:HP:t=cresc. poco
12En/L	.	.	.	8c\L	.	<
12AAn/	.	.	.	.	.	.
.	.	8gn/	.	8c#X\J	.	.
12AA#X/J	.	.	.	.	.	.
*	*	*	*v	*v	*	*
=112	=112	=112	=112	=112	=112
!	!	!LO:TX:i:a:t=non legato	!	!	!
!	!	!LO:TX:B:a:t=Risvegliando.	!	!	!
8BBn/L)	.	12f#XL 12dn 12G#X/&&&))	4ryy	.	sf
.	.	12bn 12Bn/	.	.	p <
(8GG#XJ 8GGG#X/	.	.	.	.	.
.	.	12a#XJ 12A#X/	.	.	.
12FF#XL 12FFF#X/)	.	(<4an 4An/	12An\L	.	.
(12D#X/	.	.	12cn\	.	.
12E/J	.	.	12c#X\J	.	.
!	!	!LO:TX:i:a:t=poco a poco cresc. ed	!	!	!
8Fn/L)	.	[<12dn/L)	4ryy	.	.
.	.	12ddn 12a 12dn/]	.	.	.
(8FFnJ 8FFFn/	.	.	.	.	.
.	.	12cc#XJ 12c#X/	.	.	.
12DD#XL 12DDD#X/)	.	4ccn 4cn/	&(12c\L	.	[
(>12A/	.	.	12e#X\	.	.
12A#X/J	.	.	12f#\J	.	.
*	*	*v	*v	*	*
!!LO:LB:g=original
=113||	=113||	=113||	=113||	=113||
*M3/2	*	*M3/2	*	*
*	*	*^	*	*
!	!	!LO:TX:i:a:t=accel. fino al -------	!	!	!
8Bn/L)	.	[<12gn\L&)	4ryy	.	.
!	!	!LO:TX:t=P:problem=kasownik w nawiasie	!	!	!
.	.	12ggn 12dd 12g\]	.	.	<
(8DDnJ 8DDDn/	.	.	.	.	.
.	.	12ff#XJ 12f#X\	.	.	.
12CC#XL 12CCC#X/)	.	4ee#X 4e#X/	&(12e#\L	.	.
(12A#X/	.	.	12f##X\	.	.
12Bn/J	.	.	12g#X\J	.	.
8cn/L)	.	[<12a\L&)	4ryy	.	.
.	.	12aa 12een 12a\]	.	.	.
(8CCnJ 8CCCn/	.	.	.	.	.
.	.	12gg#XJ 12g#X\	.	.	.
12BBBL 12BBBB/)	.	4ggn 4gn/	12g\L	.	[ f
(12e/	.	.	&(>12cc#X\	.	.
12e#X/J)	.	.	12ddn\J	.	.
!LO:TX:i:b:t=(marc.)	!	!	!	!	!
!LO:TX:i:b:t=ten.	!	!	!	!	!
!	!	!	!	!	!LO:DY:b=2
(>2e# NN2E#X^^\	.	(<12dd#XL 12d#X/&)	4ryy	.	sff >
.	.	12c#X/	.	.	.
.	.	12cn/J)	.	.	.
!	!	!LO:TX:t=P:problem:mixed beam	!	!	!LO:DY:a
.	.	12B\L	4ryy	.	>
.	.	(<12C#X</	.	.	.
.	.	12C##X</J	.	.	]
*	*	*v	*v	*	*
=114||	=114||	=114||	=114||	=114||
*M2/2	*	*M2/2	*	*
*met(c|)	*	*met(c|)	*	*
*^	*	*^	*	*
!	!	!	!	!LO:TX:B:t=TempoI.	!	!
8D#X\N)	4ryy	.	4f#X 4F#X~/	(12F#\L	.	.
.	.	.	.	12d#X\	.	p
8r	.	.	.	.	.	<
.	.	.	.	12dn\J	.	.
(12FF#X/L	2FF#^\	.	4a 4A~/	4c#X\)	.	.
12BB#X/	.	.	.	.	.	.
12C#X/J	.	.	.	.	.	.
4Dn/)	.	.	4ccn 4cn~/	(12c\L	.	.
.	.	.	.	12a\	.	.
.	.	.	.	12g#X\J	.	.
(12E/L	4E [4EE^\	.	4dd#X 4d#X~/	4f#\)	.	.
12F##X/	.	.	.	.	.	.
12G#X/J	.	.	.	.	.	.
!!LO:LB:g=original
=115	=115	=115	=115	=115	=115	=115
4A/)	4EE\]	.	4ff#X 4f#X/	12f#\L	.	.
.	.	.	.	12a#X\	.	.
.	.	.	.	12an\J	.	.
(12DD#X/L	2DD#\	.	4g#XNN 4G#X~/)	4ryy	.	.
12BB/	.	.	.	.	.	.
12BB#X/J	.	.	.	.	.	.
!	!	!	!	!	!	!LO:DY:a
4F#X/)	.	.	(2a 2A^/	12A\L	.	sf <
.	.	.	.	12f#X\	.	.
.	.	.	.	12fn\J	.	.
(<12C#XL 12CC#X^/	4ryy	.	.	4e\	.	.
12E/	.	.	.	.	.	.
12E#X/J	.	.	.	.	.	.
*v	*v	*	*	*	*	*
=116	=116	=116	=116	=116	=116
4F#X\)	.	4b 4B~/	12B\L	.	.
.	.	.	12a\	.	.
.	.	.	12a-X\J	.	.
(<12CnL 12CCn^/	.	4ccn 4cn~/	4gn\	.	.
12D#X/	.	.	.	.	.
12E#X/J	.	.	.	.	.
4F#\)	.	4dd#X 4d#X~/	12d#\L	.	.
.	.	.	12cc\	.	.
.	.	.	12b\J	.	.
(<12BBL 12BBB^/	.	4ff#X 4f#X~/	4an\	.	.
12A/	.	.	.	.	.
12A#X/J	.	.	.	.	.
=117	=117	=117	=117	=117	=117
4B\)	.	4aa 4a~/	12a\L	.	<
.	.	.	12cc#X\	.	.
.	.	.	12ccn\J	.	.
(<12AAnL 12AAAn/	.	4b 4B~/)	4ryy	.	.
12C#X/	.	.	.	.	.
12C##X/J	.	.	.	.	.
8D#X/L)	.	(4b#X 4B#X^/	12B#\L	.	.
.	.	.	12g#X\	.	.
(<8GGG#X/J	.	.	.	.	.
.	.	.	12gn\J	.	.
12GG#X/L	.	4ff#X 4f#X/	4ryy	.	.
12En/	.	.	.	.	.
12E#X/J)	.	.	.	.	[
!!LO:LB:g=original
=118	=118	=118	=118	=118	=118
!	!	!LO:TX:i:b:t=espress.	!	!	!
(4f#X 4c 4G#X 4F#X\	.	4ddd#X 4dd#X^/	12dd#\L	.	f
.	.	.	12ff#X\	.	.
.	.	.	12ff##X\J	.	.
12e#XL 12c#X 12G# 12E#X/)	.	[4ccc#X [4cc#X^/	4gg#X\	.	>
!	!	!	!	!	!LO:HP:b=2
(12FFF##X/	.	.	.	.	<
12GGG#X/J	.	.	.	.	.
12GG#X/L	.	4ccc#] 4cc#/]	12een\L	.	.
12En/	.	.	12ff##\	.	.
[12G#/J)	.	.	12ff##\J	.	[
4en 4c# 4G#\]	.	4gg#X 4g#X^/	12g#\L	.	[ >
.	.	.	12dd#X\	.	>
.	.	.	[12ee\J	.	.
=119	=119	=119	=119	=119	=119
*^	*	*	*	*	*
&(12gnL 12en 12c#X 12Gn\	2ryy	.	4bb 4b^/	8ee\L]	.	.
(<12FFF#X\	.	.	.	.	.	.
.	.	.	.	8ee#X\J	.	.
12FF#X\J)	.	.	.	.	.	.
4c# 4A 4F#X 4E/	.	.	(<8aa#XL 8a#X/	4ff#X\	.	]
.	.	.	8ccc#XJ 8cc#X/))	.	.	.
!	!	!	!LO:TX:i:a:t=ten.	!	!	!
8d 8F#X/&)	12D\L	.	2ff#X 2f#X^/	(4een 4cc#X\	.	.
.	(<12FFFn\	.	.	.	.	.
8r	.	.	.	.	.	.
.	12FF#\J)	.	.	.	.	.
12r	4ryy	.	.	8ddnL 8bn\	.	p
(12GGGn/L	.	.	.	.	.	.
.	.	.	.	8cc#J 8a#X\)	.	.
12GGn/J)	.	.	.	.	.	.
=120	=120	=120	=120	=120	=120	=120
12r	12ryy	.	(4b 4B^/	2f#X\	.	>
(6FF#X^/	(12GGG#X\L	.	.	.	.	.
.	12GG#X\J)	.	.	.	.	.
4FF#/	12r	.	8a#XL 8A#X/	.	.	.
.	(12AAA#X\L	.	.	.	.	.
.	.	.	8cc#XJ 8c#X/)	.	.	.
.	12AA#X\J)	.	.	.	.	.
!	!	!	!LO:TX:i:a:t=ten.	!	!	!
!	!	!	!LO:TX:i:b:t=espr.	!	!	!
4.FF#/)	12r	.	2f# 2F#X/	(4e 4c#X\	.	] pp
.	(12BBB\L	.	.	.	.	.
.	12BB\J)	.	.	.	.	.
!	!	!	!LO:TX:i:a:t=riten.	!	!	!
.	12r	.	.	8dL 8B\	.	.
.	(12DD\L	.	.	.	.	.
8ryy	.	.	.	8cnJ 8An\)	.	.
.	12D\J)	.	.	.	.	.
*v	*v	*	*	*	*	*
*	*	*v	*v	*	*
!!LO:LB:g=original
=121	=121	=121	=121	=121
4r	.	(>4f#X 4c 4A~>/	.	p
12r	.	2g 2B 2G~>/	.	<
(12DDD/L	.	.	.	.
12DD/J)	.	.	.	.
4r	.	.	.	.
12r	.	[4g#X 4B#X 4F#X~>/)	.	.
(12DD/L	.	.	.	.
12D/J)	.	.	.	.
=122	=122	=122	=122	=122
4r	.	(>4g#] 4dn 4Bn/	.	.
!	!	!LO:TX:i:a:t=senza riten.	!	!
12r	.	2a 2c#X 2A~>/	.	.
(12DDD/L	.	.	.	.
12DD/J)	.	.	.	.
4r	.	.	.	.
12r	.	[4a#X [4e#X [4G#X~>/)	.	[[
(12DD/L	.	.	.	.
[12BB-X/J)	.	.	.	.
=123||	=123||	=123||	=123||	=123||
*M3/4	*	*M3/4	*	*
!	!	!LO:TX:i:a:t=poco avviv. non legato	!	!
([4B-X 4BB-X\_	.	12b-X]L 12fn] 12A-X\]	.	.
.	.	(12aa-X 12a-X'\	.	pp
.	.	12eenJ 12bn'\	.	.
12B-]L 12BB-\]	.	12ffnL 12fn'/	.	<
12En\	.	12cc-X 12gn'/	.	.
12Fn\J	.	12b-XJ 12a-'/	.	.
12G-X\L	.	12ee-XL 12g-X'\	.	.
12GG-X\	.	12ffn 12ddn'\	.	.
12EE-X\J)	.	12gg-XJ 12ee-X'\	.	[[
!!LO:LB:g=original
=124	=124	=124	=124	=124
(12DDn'/L	.	12aa-XL 12cc-X'\)	.	<
*	*	*8va	*	*
12Dn'/	.	(12aaa-X 12aa-X'\	.	.
12A-X'/J	.	12eeenJ 12bbn'\	.	.
12c-X'\L	.	12fffnL 12ffn'\	.	.
12en'\	.	12ccc-X 12ggn'\	.	.
12fn'\J	.	12bb-XJ 12aa-X'\	.	.
12g-X'\L	.	12eee-XL 12gg-X'\)	.	.
12G-X'\J)	.	(12fff-X 12ddd-X\	.	.
12r	.	12fffnJ 12dddn\	.	.
=125	=125	=125	=125	=125
(12EE-XL 12EEE-X/	.	12ggg-XL 12eee-X\)	.	f
!	!	!	!	!LO:HP:b:t=dimin.
12GGG-X/)	.	(12eeee-X 12eee-^\	.	>
(12GG-XJ 12GGG-/	.	12bbb-X\J	.	>
12CC-X/L)	.	12ddddnL 12dddn\	.	.
(12BB 12CC-/	.	12aaan\	.	.
12EE-X/J)	.	12aaa-XJ 12aa-X\	.	.
(12E-XL 12EE-/	.	12gggn\L	.	.
12GG-/)	.	12ggg-X 12gg-X\	.	.
(<12G-XJ 12GG-/	.	12dddn\J	.	]]
*	*	*X8va	*	*
=126	=126	=126	=126	=126
!	!	!	!	!LO:HP:t=dimin.
12C-X\L)	.	12eee-XL 12ee-X\	.	>
(12c-X 12C-\	.	12bb-X\	.	>
12E-X\J)	.	12aanJ 12an\	.	.
(12e-XL 12E-\	.	12aa-X\L	.	.
12G-X\)	.	12ggn 12gn\	.	.
(12g-XJ 12G-\	.	12ddn\J	.	.
!	!	!LO:TX:i:a:t=riten.	!	!
12c-\L)	.	12ee-XL 12e-X/	.	]
(12e-\	.	12cc-X [12g-X/	.	.
12d-X\J)	.	12b-XJ 12g-]/)	.	.
!!LO:PB:g=original
=127||	=127||	=127||	=127||	=127||
*M2/2	*	*M2/2	*	*
*met(c|)	*	*met(c|)	*	*
*^	*	*^	*	*
*	*	*	*	*	*	*^
!	!	!	!LO:TX:i:a:t=espress.	!	!	!	!
12r	4ryy	.	(4.an/	2fn 2cn\	.	mp	pp
*	*	*	*	*	*	*v	*v
(>(12EEE-X/L	.	.	.	.	.	.
12EE-X/J)	.	.	.	.	.	.
12EE-/L	[4EE-\	.	.	.	.	.
12FF/	.	.	.	.	.	.
.	.	.	8ccn^/	.	.	.
12AAn/J)	.	.	.	.	.	.
!	!	!	!LO:TX:i:a:t=poco rit.	!	!	!LO:HP:a
(12E-X/L	2EE-\]	.	4c/	8c\L	.	<
12AA 12FF/	.	.	.	.	.	.
.	.	.	.	8A\J	.	.
12E-/J	.	.	.	.	.	.
12AAL 12FF/	.	.	8c#X/L	8G\L	.	.
12E-/	.	.	.	.	.	.
.	.	.	8d/J)	8G-X\J	.	[
12AAJ 12FF/)	.	.	.	.	.	.
*v	*v	*	*	*	*	*
=128	=128	=128	=128	=128	=128
!	!	!LO:TX:i:a:t=a tempo \n molto espress.\n dolce marc. il tema	!	!	!
(12CCL 12CCC/	.	(2e-X~>/	(<12F\L	.	pp <
12E-X/	.	.	12A 12G-X\	.	.
12AAJ 12FF/	.	.	12F\J	.	.
12E-/L	.	.	12AL 12G-\	.	.
12AA 12FF/	.	.	12F\	.	.
12E-/J	.	.	12AJ 12G-\)	.	.
12AAL 12FF/	.	4f/	(12F\L	.	.
12E-/	.	.	12A 12G-\	.	.
12AAJ 12FF/)	.	.	12F\J)	.	.
(12BB-XL 12BBB-X/	.	4g-X 4G-/	(12G-X\L	.	[
12EE-X/	.	.	12c 12A\	.	.
12BB-/J	.	.	12G-\J)	.	.
=129	=129	=129	=129	=129	=129
12E-X/L	.	4a 4A/	12A\L	.	.
12BB-X/	.	.	(>12g-X 12e-X\	.	.
12EE-X/J)	.	.	12A\J)	.	.
(12AAA/L	.	4cc 4c/	12c\L	.	.
12AA/	.	.	(>12g- 12e-\	.	.
12E-/J	.	.	12c\J)	.	<
12G-X/L	.	4ee-X 4e-/	12e-\L	.	.
12A/)	.	.	(>12a 12g-\	.	.
(12AAA-X/J	.	.	12e-\J)	.	.
12AA-X/L	.	4bn 4B/)	12Bn\L	.	.
12D/	.	.	(>12f 12d\	.	.
12F/J)	.	.	12B\J)	.	.
!!LO:LB:g=original
=130	=130	=130	=130	=130	=130
(12E-X/L	.	(2cc 2c/	(12c\L	.	.
12GGG/	.	.	12b-X 12e-X\	.	.
12GG/J	.	.	12c\J	.	.
12C\L	.	.	12b-L 12e-\	.	.
12B-X\	.	.	12c\	.	.
12E-X\J)	.	.	12b-J 12e-\)	.	.
12r	.	4dd 4d/	(12d\L	.	<
(12GGG-X/L	.	.	12cc 12b-\	.	.
12GG-X/J	.	.	12d\J)	.	.
12C\L	.	(4ee-X 4e-/	(12e-\L	.	.
12E-\	.	.	12cc 12b-\	.	.
12F\J)	.	.	12e-\J)	.	[
=131	=131	=131	=131	=131	=131
4g-X 4c-X 4G-X^\	.	4eee-X 4ee-X^/)	12ee-\L	.	.
.	.	.	&(12ffn\	.	f
.	.	.	12gg-X\J	.	.
12f-XL 12B-X 12G-X 12F-X^\	.	2ddd-X 2dd-X^/&)	2gg-\	.	<
(12GGG-X\	.	.	.	.	.
12GG-X\J	.	.	.	.	.
12F-\L	.	.	.	.	.
12G-\	.	.	.	.	.
12B-\J)	.	.	.	.	.
4e-X 4c- 4G-X 4E-X^\	.	4ccc-X 4cc-X^/	(12gg-\L	.	.
.	.	.	12aa-X\	.	.
.	.	.	12aan\J)	.	[
=132	=132	=132	=132	=132	=132
8cnL 8G-X 8Cn/	.	4bb-X 4b-X^/	12b-\L	.	.
.	.	.	&&(>12gg-X 12ee-X\	.	.
(8FFF/J	.	.	.	.	.
.	.	.	12b-\J	.	.
!	!	!	!	!	!LO:HP:t=sempre cresc.
8FF/L	.	12b-L 12B-X/	2ryy	.	<
.	.	12g-X 12e-X/	.	.	.
[>8C/J	.	.	.	.	.
.	.	12B-/J&&)	.	.	.
12C\L]	.	12aL 12A^>/	.	.	.
12F\	.	12e-/	.	.	.
12c\J)	.	12a/J	.	.	.
[4e-X^\	.	(4eee-X 4ee-^/	12ee-\L	.	.
.	.	.	12bbn\	.	.
.	.	.	12ccc\J	.	.
!!LO:LB:g=original
=133	=133	=133	=133	=133	=133
*	*	*	*8va	*	*
!	!	!	!LO:TX:i:a:t=con passione	!	!
4e-X] 4An 4Fn 4E-X^\	.	4eeee- 4eee-X/)	12ccc\L	.	.
.	.	.	12eee-X\	.	.
.	.	.	12eeen\J	.	.
12dL 12B-X 12F 12D^/	.	2bbb-X 2bb-X^/	4fff\	.	.
12EEEn/	.	.	.	.	.
12FFF/J	.	.	.	.	.
12FF/L	.	.	12ddd-X\L	.	.
12D-X/	.	.	12eee-X\	.	.
[12Fn/J	.	.	12eeen\J	.	.
4d-X 4B- 4F^\]	.	4fff 4ff^/)	12ff\L	.	.
.	.	.	12ccc\	.	.
.	.	.	12ddd-\J	.	.
=134	=134	=134	=134	=134	=134
*^	*	*	*	*	*
12f-XL 12d-X 12B-X 12F-X\	4ryy	.	(4aaa-X 4aa-X^/	12aa-\L	.	.
(12FFF-X\	.	.	.	12ddd-X\	.	ff
!	!	!	!	!	!	!LO:HP:t=dim.molto
12FF-X\J	.	.	.	12bb-X\J	.	>
*	*	*	*	*X8va	*	*
12FF-/L	12ryy	.	4aa-X 4a-^/	12a-X\L	.	>
12BB-X/	[6BB-\	.	.	12dd-X\	.	.
[12D-X/J)	.	.	.	12b-X\J	.	.
12B-XL 12D-] 12BB-\]	2ryy	.	4ggn 4g^/	12gn\L	.	.
(12EEE-X\	.	.	.	12dd-\	.	.
12EE-X\J	.	.	.	12b-\J	.	.
12EE-/L	.	.	4bb-X 4b-X\)	4ryy	.	.
12BB-/	.	.	.	.	.	.
12D-X/J)	.	.	.	.	.	]
*v	*v	*	*	*	*	*
=135	=135	=135	=135	=135	=135
12r	.	([>2e-X [<2E-X/	2d-X 2B-X\	.	p <
(12EEE-X/L	.	.	.	.	.
12EE-X/J)	.	.	.	.	.
(12EE-/L	.	.	.	.	.
12AA-X/	.	.	.	.	.
12G-X/J)	.	.	.	.	.
!	!	!LO:TX:i:a:t=espress.	!	!	!
12r	.	4e-] 4E-/]	4c-X 4A-X\	.	[ >
(12AAA-X/L	.	.	.	.	.
12AA-X/J)	.	.	.	.	.
12r	.	4d#X 4D#X/)	4An 4F#X\	.	.
(12BBBn/L	.	.	.	.	.
12BBn/J)	.	.	.	.	]
*	*	*v	*v	*	*
!!LO:LB:g=original
=136	=136	=136	=136	=136
4r	.	(>4d#X 4An 4F#X^>/	.	p <
!	!	!	!	!LO:DY:b=2
12r	.	2en 2G#X 2En^>/	.	sf
(12BBBBn^/L	.	.	.	.
12BBBn/J)	.	.	.	.
4r	.	.	.	.
!	!	!	!	!LO:DY:b=2
12r	.	[4e#X 4B#X 4D#X^>/)	.	sf
(12BBB^/L	.	.	.	.
12BBn/J)	.	.	.	.
=137	=137	=137	=137	=137
4r	.	(>4e#] 4Bn 4G#X^>/	.	.
!	!	!	!	!LO:DY:b=2
12r	.	2f#X 2A#X 2F#X^>/	.	sf
!	!	!LO:TX:i:a:t=senza riten.	!	!
(12BBBB^/L	.	.	.	.
12BBB/J)	.	.	.	.
4r	.	.	.	mf
!	!	!	!	!LO:DY:b=2
12r	.	4gn 4dn 4Fn^>/)	.	sf
(12BBB^/L	.	.	.	.
12BB/J)	.	.	.	.
=138	=138	=138	=138	=138
*^	*	*^	*	*
!	!	!	!LO:TX:i:a:t=espress.	!	!	!
12r	4ryy	.	(4.g#X/	2en 2Bn\	.	p
(12DDD/L	.	.	.	.	.	.
12DD/J)	.	.	.	.	.	.
12DD/L	(4DD\	.	.	.	.	.
12EEn/	.	.	.	.	.	.
.	.	.	8bn^/	.	.	.
12GG#X/J	.	.	.	.	.	.
!	!	!	!LO:TX:i:a:t=poco rit.	!	!	!LO:HP:a
(12D/L	2DD\)	.	4B/	8B\L	.	<
12GG# 12EE/	.	.	.	.	.	.
.	.	.	.	8G#X\J	.	.
12D/J	.	.	.	.	.	.
12GG#L 12EE/	.	.	8c/L	8F#X\L	.	.
12D/	.	.	.	.	.	.
.	.	.	8c#X/J)	8Fn\J	.	.
12GG#J 12EE/)	.	.	.	.	.	[
*v	*v	*	*	*	*	*
!!LO:LB:g=original
*	*	*clefF4	*	*	*
=139	=139	=139	=139	=139	=139
!LO:TX:t=P:problem=kasowniki w nawiasie	!	!LO:TX:i:a:t=a tempo	!	!	!
(12BBBnL 12BBBBn/	.	(2d/	(<12E\L	.	pp <
!	!	!LO:TX:i:a:t=molto espress.	!	!	!
12D/	.	.	12G#X 12Fn\	.	.
12GG#XJ 12EE/	.	.	12E\J	.	.
12D/L	.	.	12G#L 12F\	.	.
12GG# 12EE/	.	.	12E\	.	.
12D/J	.	.	12G#J 12F\)	.	.
12GG#L 12EE/	.	4e 4E/	(12E\L	.	.
12D/	.	.	12G# 12F\	.	.
12GG#J 12EE/)	.	.	12E\J)	.	.
(12AAL 12AAA/	.	4fn 4F/	(12F\L	.	.
12DD/	.	.	12B 12G#\	.	.
12AA/J	.	.	12F\J)	.	[
*	*	*clefG2	*	*	*
=140	=140	=140	=140	=140	=140
12D/L	.	4g#X 4G#X/	12G#\L	.	.
12AA/	.	.	(>12fn 12d\	.	.
12DD/J)	.	.	12G#\J)	.	.
(12GGG#X/L	.	4bn 4B/	12Bn\L	.	<
12GG#X/	.	.	(>12f 12d\	.	.
12D/J	.	.	12B\J)	.	.
12Fn/L	.	4dd 4d/	12d\L	.	.
12G#X/)	.	.	(>12g# 12f\	.	.
(12GGGn/J	.	.	12d\J)	.	.
12GGn/L	.	4a#X 4A#X/	12A#\L	.	.
12C#X/	.	.	(>12e 12c#X\	.	.
12E/J	.	.	12A#\J)	.	.
=141	=141	=141	=141	=141	=141
12D/L)	.	2b 2B/	(12B\L	.	.
(<12FFF#X/	.	.	12a 12d\	.	.
12FF#X/J	.	.	12B\J	.	.
12BB\L	.	.	12aL 12d\	.	.
12A\	.	.	12B\	.	.
12D\J)	.	.	12aJ 12d\)	.	<
12r	.	4cc#X 4c#X/	(12c#\L	.	.
(12FFFn/L	.	.	12b 12a\	.	.
12FFn/J	.	.	12c#\J)	.	.
12BB/L	.	4dd 4d/	(12d\L	.	.
12D/	.	.	12b 12a\	.	.
12E/J)	.	.	12d\J)	.	.
!!LO:PB:g=original
=142	=142	=142	=142	=142	=142
4fn 4B-X 4Fn^\	.	4ddd 4dd^/	12dd\L	.	f
.	.	.	12een\	.	.
.	.	.	12ffn\J	.	.
12e-XL 12A 12F 12E-X^/	.	2cccn 2ccn^/	2ff\	.	.
(<12FFFn/	.	.	.	.	.
12FFn/J	.	.	.	.	.
12E-\L	.	.	.	.	.
12F\	.	.	.	.	.
12A\J)	.	.	.	.	.
4d 4B- 4F 4D^\	.	4bb-X 4b-X^/)	12ff\L	.	.
.	.	.	12gg\	.	.
.	.	.	12gg#X\J	.	.
=143	=143	=143	=143	=143	=143
8BnL 8Fn 8BBn/	.	(4aa 4a^/	12a\L	.	.
.	.	.	12ffn 12dd\	.	.
(<8EEE/J	.	.	.	.	.
.	.	.	12a\J	.	.
8EE/L	.	4a 4A^/	12A\L	.	<
.	.	.	12fn 12d\	.	.
[8BB/J	.	.	.	.	.
.	.	.	12A\J	.	.
12BB\L]	.	4g#X 4G#X^/	12G#\L	.	.
12E\	.	.	12d\	.	.
12B\J)	.	.	12gn\J	.	.
[4d^\	.	(4ddd 4dd^/	12dd\L	.	.
.	.	.	12aa#X\	.	.
.	.	.	12bb\J	.	[
=144	=144	=144	=144	=144	=144
*	*	*8va	*	*	*
4d] 4G#X 4E 4D^\	.	4bbb 4bb^/)	(12bb\L	.	<
.	.	.	12ddd\	.	.
.	.	.	12ddd#X\J	.	.
12c#XL 12A 12E 12C#X^/	.	2aaa 2aa^/	4eee\)	.	.
(12DDD#X/	.	.	.	.	.
12EEE/J	.	.	.	.	.
!	!	!LO:TX:i:a:t=con passione	!	!	!
12EE/L	.	.	(12cccn\L	.	.
12Cn/	.	.	12dddn\	.	.
[12E/J)	.	.	12ddd#X\J	.	.
4cn 4A 4E^\]	.	4eee 4ee/)	12ee\L)	.	.
.	.	.	12bb\	.	.
.	.	.	12ccc\J	.	.
*	*	*X8va	*	*	*
!!LO:PB:g=original
=145	=145	=145	=145	=145	=145
*^	*	*	*	*	*
12e-XL 12c 12A 12E-X^>/	4ryy	.	(4gggn 4gg^/	12ggn\L	.	ff
(>12EEE-X/	.	.	.	12cccn\	.	.
12EE-X/J	.	.	.	12aa\J	.	.
!	!	!	!LO:TX:i:a:t=sempre piu agitato	!	!	!
12EE-/L	12ryy	.	4gg 4g^/	12g\L	.	.
12AA/	[6AA\	.	.	12cc\	.	.
[12C/J)	.	.	.	12a\J	.	.
12AL 12C] 12AA/]	2ryy	.	4ff#X 4f#X^/	12f#\L	.	.
(12DDDn/	.	.	.	12cc\	.	.
12DDn/J	.	.	.	12a\J	.	.
12DD/L	.	.	4aa 4a^\)	4ryy	.	.
12AA/	.	.	.	.	.	.
12C/J)	.	.	.	.	.	.
*v	*v	*	*	*	*	*
*	*	*clefF4	*	*	*
=146	=146	=146	=146	=146	=146
!	!	!LO:TX:i:a:t=Deciso.	!	!	!
!	!	!LO:TX:i:b:t=ten.	!	!	!LO:DY:a
12r	.	1d 1D^	(<2c 2A\	.	f sf <
(12DDD/L	.	.	.	.	.
12DD/J)	.	.	.	.	.
(12DD/L	.	.	.	.	.
12GG/	.	.	.	.	.
12D/J)	.	.	.	.	.
!	!	!LO:TX:i:a:t=senza riten.	!	!	!
12r	.	.	4B-X 4G\	.	.
(12GGG/L	.	.	.	.	.
12GG/J)	.	.	.	.	.
12r	.	.	4A-X 4Fn\)	.	.
(12BBB-X/L	.	.	.	.	.
12BB-X/J)	.	.	.	.	[
*	*	*v	*v	*	*
=147	=147	=147	=147	=147
*	*	*	*	*^
!	!	!	!	!LO:HP:b	!
4r	.	4d 4A-X 4F^\	.	<	.
!	!	!	!	!	!LO:DY:b=2
12r	.	2e-X 2G 2E-X^\	.	.	sff
(12BBBB-X/L	.	.	.	.	.
12BBB-X/J)	.	.	.	.	.
!	!	!	!	!	!LO:HP:a
(12BBB-/L	.	.	.	.	<
12BB-X/J)	.	.	.	.	.
12r	.	.	.	.	.
!	!	!LO:TX:t=P:problem=bemol w nawiasie	!	!	!
4r	.	8en 8A-X 8D^\	.	[	.
*	*	*	*	*v	*v
.	.	8r	.	.
!!LO:LB:g=original
=148	=148	=148	=148	=148
*	*	*	*	*^
!	!	!	!	!LO:HP:b	!
4r	.	4e 4B-X 4G^\	.	<	.
12r	.	2f 2An 2F^\	.	.	.
!	!	!	!	!	!LO:DY:b=2
(12BBBB-X/L	.	.	.	.	sff
!	!	!	!	!	!LO:HP:a
12BBB-X/J)	.	.	.	.	<
(12BBB-/L	.	.	.	.	.
12BB-X/)	.	.	.	[	.
(12BB-/J	.	.	.	.	.
!	!	!	!	!	!LO:DY:b=2
8G-X 8E-X^\)	.	8g-X 8c 8A^\	.	.	sff
!	!	!LO:TX:i:b:t=secco	!	!	!
8r	.	8r	.	.	.
*	*	*	*	*v	*v
*	*	*clefG2	*	*
=149	=149	=149	=149	=149
*	*	*^	*	*
!	!	!LO:TX:i:a:t=marcatissimo	!	!	!
!LO:TX:t=P:problem:mixed beam	!	!LO:TX:i:a:t=Furioso.	!	!	!LO:DY:b=2
12BB-X/L 12BBB-X^/	.	12d-XL 12B-X 12G-X^/	2ryy	.	sf
12g-X> 12d> 12B-X>^\	.	12bb-X 12gg-X 12dd-X 12b-X^/	.	.	.
12g->J 12d> 12B->^\	.	12bb-J 12gg- 12dd- 12b-^/	.	.	.
!LO:TX:i:t=sempre	!	!	!	!	!
12g->L 12d> 12B->^\	.	12bb-L 12gg- 12dd- 12b-^/	.	.	f
12gn> 12en> 12Bn>^\	.	12ggn 12een 12bn^/	.	.	.
12a-X>J 12f> 12c>^\	.	12aa-XJ 12ff 12cc^/	.	.	.
!	!	!	!	!	!LO:DY:b=2
4BBn 4BBBn^^/	.	4aan 4an^^/	(12ff#X\L	.	sf
.	.	.	12dd#X\	.	.
.	.	.	12ddn\J)	.	.
!	!	!	!	!	!LO:DY:b=2
4C 4CC^^/	.	4gg 4g^^/	(12ee-X\L	.	sf
.	.	.	12cc\	.	.
.	.	.	12bn\J)	.	.
*	*	*v	*v	*	*
*clefG2	*	*	*	*
=150	=150	=150	=150	=150
*	*	*	*	*^
!	!	!	!	!LO:HP:b	!
8r	.	(12b-X~\L	.	<	.
.	.	12a~\	.	.	.
16r	.	.	.	.	.
.	.	12cc~\J	.	.	.
(<[>16en 16B-X 16Gn/	.	.	.	.	.
!	!	!	!	!	!LO:DY:b=2
8e]L 8Bn 8G#X/)	.	12bn~\L	1	.	sf
.	.	12een~\	3	.	.
16r	.	.	.	.	.
!	!	!LO:TX:i:b:t=precipitando	!	!	!
.	.	12dd#X~\J	2	.	.
(16g#XJk 16e 16dn/	.	.	.	.	.
!	!	!	!	!	!LO:DY:b=2
8gn 8e 8c#X^/)	.	12bb-X~\L	5	.	sf
.	.	12aa~\	1	.	.
8r	.	.	.	.	.
.	.	12bb#X~\J	2	.	.
*clefF4	*	*	*	*	*
8r	.	12ddd#X~\L	3	.	.
.	.	12eee~\	4	.	.
16r	.	.	.	.	.
!	!	!	!	!	!LO:DY:b=2
.	.	(12eee~\J	1	[	sf
*	*	*	*	*v	*v
([16CC#X/	.	.	.	.
!!LO:LB:g=original
=151	=151	=151	=151	=151
*	*	*^	*	*
*	*	*	*8va	*	*
!	!	!LO:TX:i:b:t=sempre	!	!	!
24CC#X] 24CCC#X/)	.	12ryy	24eeee^\))	.	??? ff
*	*	*	*X8va	*	*
24r	.	.	24r	.	.
12a>L 12e> 12c#X>^\	.	12ccc#XL 12aa 12ee 12cc#X^/	12ryy	.	.
12a>J 12e> 12c#>^\	.	12ccc#J 12aa 12ee 12cc#^/	12ryy	.	.
12a>L 12e> 12c#>^\	.	12ccc#L 12aa 12ee 12cc#^/	4ryy	.	.
12b-X> 12g> 12d>^\	.	12bb-X 12ggn 12ddn^/	.	.	.
12bn>J 12g#X> 12d#X>^\	.	12bbnJ 12gg#X 12dd#X^/	.	.	.
4DD 4DDD^^/	.	4cccn 4ccn^^/	(12aan\L	.	.
.	.	.	12ff#X\	.	.
.	.	.	12ee#X\J)	.	.
4EE-X 4EEE-X^^/	.	4bb-X 4b-X^^/	(12gg-X\L	.	.
*	*	*	*	*below	*
.	.	.	12ddn\	2	.
.	.	.	12dd-X\J)	1	.
*	*	*v	*v	*	*
=152	=152	=152	=152	=152
*	*	*	*above	*
8EEn 8EEEn^^/	.	12cc-X~\L	2	<
.	.	12b-X~\	1	.
16r	.	.	.	.
.	.	12ggn~\J	5	.
(<[>16enKL [>16c#X 16Bn\	.	.	.	.
!	!	!LO:TX:i:b:t=precipitando	!	!
8e]J 8c#] 8A#X\)	.	12gg-X~\L	1	.
.	.	12bb-X~\	2	.
16r	.	.	.	.
!	!	!	!	!LO:DY:b=2
.	.	12bb-~\J	1	sf
([>16DDn/	.	.	.	.
24DD] 24DDD/)	.	24bbb-X^^\	5	[ sf
24r	.	24r	.	.
12b-X>L 12f> 12d>^\	.	12dddL 12bb-X 12ff 12dd^/	.	.
12b->J 12f> 12d>^\	.	12dddJ 12bb- 12ff 12dd^/	.	.
12b->L 12f> 12d>^\	.	12dddL 12bb- 12ff 12dd^/	.	.
12cc> 12a-X> 12e-X>^\	.	12ccc-X 12aa-X 12ee-X^/	.	.
12ccn>J 12an> 12en>^\	.	12cccnJ 12aan 12een^/	.	.
!!LO:LB:g=original
=153	=153	=153	=153	=153
*	*	*^	*	*
(12EEE-X/L	.	(4ddd-X 4bb-X^/	12dd-X\L	.	ff <
12EE-X/)	.	.	12ggn\	.	.
(12EEEn/J	.	.	12ff#X\J	.	.
!	!	!LO:TX:i:a:t=molto appassionato	!	!	!
12EEn/L)	.	2bbn 2ggn^^/	12bn\L	.	.
(12GGn/	.	.	12een\	.	[ sff
12Gn/J)	.	.	12dd#X\J	.	.
!LO:TX:t=P:problem=kasownik w nawiasie	!	!	!	!	!
(12BBn\L	.	.	12ee\L	.	>
!LO:TX:t=P:problem=kasownik w nawiasie	!	!	!	!	!
12Bn\)	.	.	12b\	.	.
[<12FFFn\J	.	.	12ee-X\J	.	.
8FFnL 8FFF/])	.	4aa 4ccn^/)	12dd#\L	.	.
.	.	.	12a\	.	.
[8FF#XJ [8FFF#X/	.	.	.	.	.
.	.	.	&(>12dd#\J	.	]
*	*	*v	*v	*	*
=154	=154	=154	=154	=154
*^	*	*	*	*
12AL 12D 12C/	2.FF#] 2.FFF#\]	.	(12ddL 12cc 12a/&)	.	mp
!	!	!	!	!	!LO:HP:t=molto cresc.
12c/	.	.	12d/	.	<
12AJ 12D 12C/	.	.	12ddJ 12cc 12a/	.	.
12A-XL 12E-X 12C/	.	.	12ee-XL 12cc 12a-X/	.	.
12c/	.	.	12e-X/	.	.
[12A-J [<12E- [<12C/	.	.	12ee-J 12cc 12a-/	.	.
4c 4A-] 4E-] 4C/]	.	.	12a-\L	.	<
.	.	.	12aa-X 12ee- 12cc\	.	.
.	.	.	12a-\J	.	.
!	!	!	!LO:TX:t=P:problem=kasownik w nawiasie	!	!
4EE-X 4EEE-X^^/	4ryy	.	12cccnL 12aa- 12ee-\	.	.
.	.	.	12cc\	.	.
.	.	.	12cccJ 12aa- 12ee-\)	.	.
*v	*v	*	*	*	*
=155	=155	=155	=155	=155
*	*	*^	*	*
(12EEEn/L	.	(4eee-X 4ee-X^/	12cccn\L	.	.
12EEn/)	.	.	12aa-X\	.	.
(12FFFn/J	.	.	12gg\J	.	.
12FFn/L)	.	2ddd-X 2dd-X^^/	12aa-\L	.	[ ff >
(12AA-X/	.	.	12ffn\	.	.
12A-X/J)	.	.	12aa-\J	.	.
(12D-X\L	.	.	12ff\L	.	.
12d-X\)	.	.	12aa-\	.	.
(12Dn\J	.	.	12ff\J	.	.
12dn\L)	.	4ccc^/)	12aa-\L	.	.
(12E-X\	.	.	12cc\	.	.
12e-X\J)	.	.	[>12ff^\J	.	]
!!LO:LB:g=original
=156	=156	=156	=156	=156	=156
4AAn 4AAAn/	.	(4ff] 4f/	12f\L	.	mf
!	!	!	!	!	!LO:HP:t=molto cresc.
.	.	.	12cc\	.	<
.	.	.	12an\J	.	.
12BnL 12F#X 12D#X\	.	12ff#XL 12dd#X 12bn\	2.ryy	.	.
12d#X\	.	12f#X\	.	.	.
12BJ 12F# 12D#\	.	12ff#J 12dd# 12b\	.	.	.
(12FFF#X/L	.	12b\L	.	.	.
12FF#X/)	.	12bbn 12ff# 12dd#\	.	.	.
(12FFF#/J	.	12b\J	.	.	.
12GGn/L)	.	12ddd#XL 12bb 12ff#\	.	.	.
(12GGGn/	.	12dd#\	.	.	.
12GG/J)	.	12ddd#J 12bb 12ff#\)	.	.	.
*	*	*v	*v	*	*
=157	=157	=157	=157	=157
!	!	!LO:TX:i:b:t=sempre	!	!
(12GGG#X/L	.	(12fff#XL 12dddn^\	.	ff
12GG#X/	.	12bb\	.	.
!	!	!LO:TX:i:a:t=passionato,ma senza accel. il tempo	!	!
12BB/J	.	12ff#X\J	.	.
12C#X\L	.	12eee#XL 12ccc#X^\	.	.
12E#X\	.	12bb\	.	.
12B\J)	.	12ee#X\J	.	.
12AAL 12AAA^\	.	12ccc#L 12gg#X 12ee# 12cc#X^\)	.	.
!	!	!LO:TX:i:b:t=marcatissimo	!	!
*	*	*	*	*^
!	!	!	!	!LO:HP:a	!LO:HP:b=2
12c#X 12G#X 12E#X^\	.	12cc# 12g#X 12e#X^\	.	<	<
12c#J 12G# 12E#^\	.	12cc#J 12g# 12e#^\	.	.	.
12c#L 12G# 12E#^\	.	12cc#L 12g# 12e#^/	.	.	.
12dn 12B-X 12Fn^\	.	12ddn 12b-X 12fn^/	.	.	.
12d#XJ 12Bn 12F#X^\	.	12dd#XJ 12bn 12f#X^/	.	[	[
*	*	*	*	*v	*v
!!LO:LB:g=original
=158	=158	=158	=158	=158
*	*	*^	*	*
12enL 12c#X 12Gn^\	.	4ryy	12eenL 12cc#X^\	.	[
(12AAA#X^\	.	.	12gn\	.	.
12AA#X\J	.	.	12ee\J	.	.
12E\L	.	(2eee^/	12ccc#XL 12ggn\	.	sff
12Gn\	.	.	12ee\	.	.
12c#X\J)	.	.	12ccc#J 12gg\	.	.
(12BBB#X^/L	.	.	12ee\L	.	.
12BB#X/	.	.	12gg#X 12ff#X\	.	.
12F#X/J	.	.	12ee\J	.	.
12G#X\L	.	8ddd#X/)	12ddd#L 12gg# 12ff#\	.	.
12B#X\	.	.	12dd\	.	.
.	.	8r	.	.	.
12f#X\J)	.	.	12ddd#J 12gg# 12ff#\	.	.
*	*	*v	*v	*	*
!!LO:PB:g=original
=159	=159	=159	=159	=159
(12CCC#X^>/L	.	(12ddd#X^\L	.	.
12CC#X/	.	12aa 12ee\	.	.
12CC#/J	.	12dd#X\J	.	.
12EEn/L	.	12ccc#X^\L	.	.
12AAn/	.	12aa 12ee\	.	.
12En/J)	.	12cc#X\J)	.	.
12DDnL 12DDDn^/	.	12gg#XL 12ee#X 12b 12g#X^>/	.	.
12G#X 12E#X^/	.	12g# 12dn 12B^>/	.	<
12G#J 12E#^/	.	12g#J 12d 12B^>/	.	.
12G#L 12E#^<\	.	12g#L 12d 12B^>/	.	.
12A#X 12G# 12E#^<\	.	12a#X 12g# 12e#X^>/	.	.
12BnJ 12G# 12En^<\	.	12bnJ 12g# 12en^>/	.	[
=160	=160	=160	=160	=160
*	*	*^	*	*
12B#XL 12F#X 12D#X/	.	12ryy	12b#XL 12f#X 12d#X\	.	.
(12DDD#X/	.	6gg#X^/	&(>12gg#\	.	.
12DD#X/J	.	.	12g#X\J	.	.
12FF#X/L	.	[4bb^/	12bbn\L	.	sf
12BB#X/	.	.	12ff#X 12dd#X\	.	.
12F#X/J)	.	.	12bn\J	.	.
(12EEEn/L	.	4bb/]	12ggnL 12cc#X\	.	.
!	!	!	!LO:TX:t=P:problem=kasownik w nawiasie	!	!
12EEn/	.	.	12bn\	.	.
12GGn/J	.	.	12ggJ 12cc#\	.	.
12BB-X\L	.	4bb-X 4b-X/&)	12b-\L	.	.
12D-X\	.	.	12gg 12cc#\	.	.
12Gn\J)	.	.	12b-\J	.	.
=161	=161	=161	=161	=161	=161
!	!	!LO:TX:i:a:t=poco riten.	!	!	!LO:HP:t=dim.molto
(<12FFFn/L	.	(12bb-XL 12ffn 12ccn\	2ryy	.	>
12FFn/	.	12b-X\	.	.	.
12Cn/J	.	12bb-J 12ff 12cc\	.	.	>
&(12cn\L	.	12a-X\L	.	.	.
12Fn\J)&)	.	12aa-X 12ff 12cc\	.	.	.
12r	.	12a-\J	.	.	.
12r	.	(2b- 2B-X/)	4re	.	] p <
(12FFF/L	.	.	.	.	.
12FF/J)	.	.	.	.	.
12r	.	.	[4a-X [4d\	.	.
(12A-X\L	.	.	.	.	.
12D\J)	.	.	.	.	.
!!LO:PB:g=original
=162	=162	=162	=162	=162	=162
12r	.	4bn 4Bn/	2g#X] 2d\]	.	.
(12EEE/L	.	.	.	.	.
12EE/J)	.	.	.	.	.
12r	.	4ddn 4dn/	.	.	.
(12G#X\L	.	.	.	.	.
12D\J)	.	.	.	.	.
12r	.	4b#X 4B#X/	2a#X 2e\	.	.
(12AAA/L	.	.	.	.	.
12AA/J)	.	.	.	.	.
12r	.	4cc#X 4c#X/)	.	.	.
(12A\L	.	.	.	.	.
12E\J)	.	.	.	.	[
=163	=163	=163	=163	=163	=163
!	!	!LO:TX:i:a:t=poco accel.	!	!	!
12r	.	(4ddn 4dn/	2ccn 2g-X\	.	.
(12AAA-X/L	.	.	.	.	.
12AA-X/J)	.	.	.	.	.
12r	.	4ee-X 4e-X/	.	.	<
(12c\L	.	.	.	.	.
12G-X\J)	.	.	.	.	.
12r	.	4ff#X 4f#X/	2ryy	.	.
(12GGGn/L	.	.	.	.	.
12GGn/J)	.	.	.	.	.
!	!	!	!LO:TX:t=P:problem=bemole w nawiasie	!	!
12r	.	4ee-X 4cc 4f# 4e-X/)	.	.	.
(12c\L	.	.	.	.	.
12En\J)	.	.	.	.	.
=164	=164	=164	=164	=164	=164
12r	.	(4een 4en/	2cc 2a\	.	.
(12FFF#X/L	.	.	.	.	.
12FF#X/J)	.	.	.	.	.
12r	.	4ff#X 4f#X/	.	.	.
(12A\L	.	.	.	.	.
12Cn\J)	.	.	.	.	.
12r	.	4aa 4a/	2dd 2b\	.	.
(12FFFn/L	.	.	.	.	.
12FFn/J)	.	.	.	.	.
!	!	!LO:TX:t=P:problem=krzyżyki w nawiasie	!	!	!
12r	.	4ff#X 4f#X/)	.	.	.
(12G\L	.	.	.	.	.
12BB\J)	.	.	.	.	.
!!LO:LB:g=original
=165	=165	=165	=165	=165	=165
*	*	*	*	*	*^
!	!	!	!	!	!	!LO:HP:a
12r	.	(4ggn 4gn/	2dd-X 2b-X\	.	.	<
(12EEE/L	.	.	.	.	.	.
12EE/J)	.	.	.	.	.	.
12r	.	4aan 4an/	.	.	.	.
!	!	!	!	!	!LO:HP:b	!
(12G\L	.	.	.	.	<	.
12BB-X\J)	.	.	.	.	.	.
12r	.	4ccc 4cc/	2gg 2dd-\	.	.	.
(12EEE-X/L	.	.	.	.	.	.
12EE-X/J)	.	.	.	.	.	.
12r	.	4aa 4a/)	.	.	.	.
(12d-XL 12D-X\	.	.	.	.	.	.
12G\J)	.	.	.	.	.	[
*	*	*	*	*	*v	*v
=166	=166	=166	=166	=166	=166
*^	*	*	*	*	*
!	!	!	!LO:TX:i:b:t=riten.	!	!	!
4r	12r	.	(4aa#X 4a#X/	2gg#X 2ddn\	.	ff <
.	(12DDD\L	.	.	.	.	.
.	12DD\J)	.	.	.	.	.
&&&(N(2e-X 2E-X~^^/	4r	.	4bbn 4bn/	.	.	.
!	!	!	!LO:TX:t=P:problem=kasownik w nawiasie	!	!	!
.	(12GGGL 12DDD\	.	8dddn 8bb 8gg# 8dd\)	4ryy	.	[
.	12DD\	.	.	.	.	.
.	.	.	8r	.	.	.
.	12C#X\J)	.	.	.	.	.
!	!	!	!LO:TX:i:a:t=poco rallentare; espressivo con forza	!	!	!
8.D~^^/L&&&)	[4D\	.	8.d~^^/L	[4d\N)	.	.
16cn~^^/Jk	.	.	16ccn~^^/Jk	.	.	.
=167	=167	=167	=167	=167	=167	=167
4D/]	[1GG^^ [1DD	.	(2cc 2c~^^/	4d\]	.	<
(2Fn/	.	.	.	2fn\	.	.
!	!	!	!LO:TX:t=P:problem=kasowniki w nawiasie	!	!	!
.	.	.	[2bn [2Bn/	.	.	[ >
4En/)	.	.	.	4enX\	.	]
!!LO:LB:g=original
=168	=168	=168	=168	=168	=168	=168
4E-X/	4GG] 4DD\]	.	4b] 4B/])	4e-X\	.	ff <
4D 4BB 4GG 4DD/	4ryy	.	[2b [<2B~^^/	4g 4d\	.	.
!LO:TX:i:b:t=ten.	!	!	!	!	!	!
!LO:TX:t=P:problem=kasowniki w nawiasie	!	!	!	!	!	!
(>8qEEn 8qEEEn/	.	.	.	.	.	.
2G 2C#X 2BB 2EE/)	2ryy	.	.	2g 2c#X\	.	.
!	!	!	!LO:TX:i:b:t=poco riten.	!	!	!
.	.	.	8.b]L 8.B/]	.	.	.
.	.	.	16cc#XJk 16c#X~^^/	.	.	.
(>8qFF#X 8qFFF#X/	.	.	.	.	.	[
*v	*v	*	*	*	*	*
*	*	*v	*v	*	*
=169	=169	=169	=169	=169LO:TX:t=P:problem=
!	!	!LO:TX:i:a:t=con fuoco	!	!
4F#X 4C#X 4FF#X/)	.	2bn [2f#X [2c#X 2Bn^^/	.	sfff
!	!	!	!	!LO:HP:b=2
N(20FFF#^^</LL	.	.	.	<
20FF#/	.	.	.	.
20CC#X/	.	.	.	.
20FF#/	.	.	.	.
20C#/JJ	.	.	.	.
8F#X\	.	28a#XLLL 28f#] 28c#] 28A#X/	.	[ <
.	.	28c#/	.	.
.	.	28f#/	.	.
.	.	28a#/	.	.
*clefG2	*	*	*	*
16r	.	.	.	.
.	.	28cc#X/	.	.
.	.	28ff#X/	.	.
32r	.	.	.	.
.	.	28aa#X/JJJ	.	[
32Cn/	.	.	.	.
8a#X/	.	8aaa#X^^\N)	.	sff
8r	.	8r	.	.
!!LO:LB:g=original
*clefF4	*	*	*	*
=170||	=170||	=170||	=170||	=170||
*M3/4	*	*M3/4	*	*
!LO:TX:i:b:t=senza \nPedale	!	!LO:TX:i:a:t=A tempo. molto deciso ed accel.	!	!
8BnL 8F#X^/	.	8dd#XL 8b 8f#X 8d#X^/	.	ff
16r	.	16r	.	.
(16FF#XJk 16FFF#X/	.	(16ff#XJk 16f#/	.	.
8B-XL 8Fn^/)	.	8ddnL 8b-X 8dn^/)	.	.
16r	.	16r	.	.
(16GGnJk 16GGGn/	.	(16ee-XJk 16e-X/	.	.
8AnL 8En^/)	.	8cc#XL 8an 8c#X^/)	.	.
16r	.	16r	.	.
(16AAnJk 16AAAn/	.	(16ddnJk 16dn/	.	.
=171||	=171||	=171||	=171||	=171||
*M2/2	*	*M2/2	*	*
*met(c|)	*	*met(c|)	*	*
*^	*	*^	*	*
*	*^	*	*	*	*	*
8GnL 8D^/)	2ryy	2ryy	.	8bnL 8gn 8Bn^/)	2ryy	.	.
16r	.	.	.	16r	.	.	.
16BBBnJk 16BBBBn/	.	.	.	(16ddnJk 16dn/	.	.	.
[4BB 4BBB^^/	.	.	.	8aL 8fn 8A^/)	.	.	sf
.	.	.	.	16r	.	.	.
.	.	.	.	(>16bJk 16B/	.	.	.
8.G^/L	2BB\]	4E\	.	8.g^/L	4e 4B\	.	>
16A/Jk	.	.	.	16a/Jk)	.	.	.
8.Fn^/L	.	[<4D\	.	(8.f^/L	4d 4A\	.	.
16G/Jk	.	.	.	16g/Jk)	.	.	.
*v	*v	*v	*	*	*	*	*
*	*	*v	*v	*	*
=172||	=172||	=172||	=172||	=172||
*M3/4	*	*M3/4	*	*
*^	*	*	*	*
8dn 8D/	8D] 8BB\	.	(8.eenL 8.ddn 8.bn 8.an^\	.	] f
(4BB 4BBB~/	8ryy	.	.	.	.
.	.	.	16ggnJk 16g#X\)	.	.
!	!	!	!LO:TX:i:a:t=senza rallent.	!	!
.	4ryy	.	(8.eeL 8.cc#X 8.b-X 8.gn^\	.	.
4D 4DD~/	.	.	.	.	.
.	.	.	16ffnJk 16f#X\)	.	.
.	4ryy	.	(8.dd-XL 8.cc-X 8.a-X 8.fn^/	.	.
8Fn 8FFn~/)	.	.	.	.	.
.	.	.	16ddnJk 16en/)	.	.
*v	*v	*	*	*	*
!!LO:LB:g=original
=173	=173	=173	=173	=173
*	*	*	*	*^
!	!	!	!	!LO:DY:b	!
8r	.	(8.eeenL 8.dddn 8.bbn 8.aan^\	.	f	.
!	!	!	!	!LO:HP:b	!
.	.	.	.	>	.
!LO:TX:i:b:t=il basso dolce marc.	!	!	!	!	!
(4BB 4BBB~/	.	.	.	.	.
!	!	!LO:TX:i:a:t=calando	!	!	!LO:HP:a
.	.	16gggnJk 16gg#X\)	.	.	>
.	.	(8.eeeL 8.ccc#X 8.bb 8.ggn^\	.	.	.
4D 4DD~/	.	.	.	.	.
.	.	16fffnJk 16ff#X\)	.	.	.
.	.	(8.ddd-XL 8.ccc-X 8.aa-X 8.ffn^\	.	.	.
[8FL [8FF~/	.	.	.	.	.
.	.	16ddd-Jk 16een\)	.	.	.
=174	=174	=174	=174	=174	=174
8F]J 8FF/]	.	(8.bbnL 8.aan 8.ff#X 8.dd#X^\	.	.	.
4G#X 4GG#X~/	.	.	.	.	.
.	.	16cccnJk 16ddn\)	.	.	.
.	.	(8.gg#XL 8.ff# 8.dd#X 8.b#X\	.	.	.
4B 4BB~\	.	.	.	.	.
.	.	16aanJk 16bn\)	.	.	.
.	.	(8.ff#XL 8.een 8.cc#X 8.a#X\	.	.	.
8c#X 8C#X~\)	.	.	.	.	.
.	.	16ggnJk 16an\)	.	]	.
*	*	*	*	*v	*v
=175	=175	=175	=175	=175
*^	*	*	*	*
!	!LO:TX:t=P:problem:tryl z kasownikiem	!	!	!	!
4d/	[>2.DTT\	.	(8.eenL 8.ddn 8.bn 8.an~\	.	p
!	!	!	!LO:TX:i:b:t=dolce	!	!
.	.	.	16ggnJk 16g#X\)	.	.
4r	.	.	(8.eeL 8.cc#X 8.a#X 8.g#~\	.	.
.	.	.	16ffnJk 16gn\)	.	.
4r	.	.	(8.cc#L 8.b 8.g#X 8.f#X~/	.	.
.	.	.	16ddnJk 16e#X/)	.	.
*	*	*	*clefF4	*	*
!!LO:PB:g=original
=176	=176	=176	=176	=176	=176
!LO:TX:t=P:problem:tryl z kasownikiem	!	!	!	!	!
2.DTT/]	8DD\	.	(8.enL 8.dn 8.Bn 8.An~\	.	.
.	8r	.	.	.	.
.	.	.	16gnJk 16G#X\)	.	.
.	4r	.	(8.eL 8.c#X 8.A#X 8.G#X~\	.	.
.	.	.	16fnJk 16Gn\)	.	.
.	4r	.	(8.c#L 8.Bn 8.G#X 8.F#X~\	.	.
.	.	.	16dJk 16E#X\)	.	.
*v	*v	*	*	*	*
=177	=177	=177	=177	=177
*	*	*^	*	*
!	!	!LO:TX:i:b:t=rallent.	!	!	!
8r	.	(8.enL 8.dn 8.Bn 8.An~\	4ryy	.	p
4BBB 4BBBB~/	.	.	.	.	.
.	.	16gnJk 16G#X\)	.	.	p
.	.	(8.eL 8.B-X 8.Gn~\	4ryy	.	.
8CC#X 8CCC#X~/	.	.	.	.	.
.	.	16f#XJk 16F#X\)	.	.	.
8DD 8DDD~/	.	(8.c#X^/L	4A 4Fn\	.	.
8r	.	.	.	.	.
.	.	16cn/Jk)	.	.	.
=178	=178	=178	=178	=178	=178
*^	*	*	*	*	*
(8.FF/L	[2.EEE\	.	(2B 2A/	(8.F\L	.	.
!	!	!	!LO:TX:i:b:t=rallent. e dimin.	!	!	!
16FF#X/Jk)	.	.	.	16F#X\Jk)	.	<
(8.EE/L	.	.	.	(8.E\L	.	.
16FFn/Jk)	.	.	.	16Fn\Jk)	.	.
(8.DD#X/L	.	.	[4cn [4G#X/	(8.D#X\L	.	.
16EE/Jk)	.	.	.	16E\Jk)	.	[
!!LO:LB:g=original
=179	=179	=179	=179	=179	=179	=179
2DDn/	2EEE\]	.	4c/]	2G#] 2Dn\	.	>
.	.	.	4c#X/	.	.	.
4r	4ryy	.	4d/)	4r	.	]
*v	*v	*	*	*	*	*
*	*	*clefG2	*	*	*
*	*	*v	*v	*	*
=180||	=180||	=180||	=180||	=180||
*k[f#c#g#]	*	*k[f#c#g#]	*	*
*M2/4	*	*M2/4	*	*
*	*	*^	*	*
!	!	!LO:TX:i:b:t=molto espress.	!	!	!
!	!	!LO:TX:B:a:t=Quasi andante.	!	!	!
12r	.	(4dd 4d/	2a 2e\	.	p <
(12AAL 12AAA/	.	.	.	.	.
12EE/J)	.	.	.	.	.
(12FFnL 12FFFn/	.	4cc#X 4c#X/)	.	.	.
12AAA/	.	.	.	.	.
12EEJ 12EEE/)	.	.	.	.	[
*	*	*v	*v	*	*
=181||	=181||	=181||	=181||	=181||
*M3/4	*	*M3/4	*	*
*	*	*^	*	*
!LO:TX:i:b:t=dolciss.	!	!LO:TX:i:b:t=dolce	!	!	!LO:DY:rj
(16DDD/LL	.	(4.aa 4.a~/	2.ffn 2.b\	.	pp
!	!	!	!	!	!LO:HP:b=2
16DD/	.	.	.	.	<
16FFn/	.	.	.	.	.
16GGn/JJ	.	.	.	.	.
16GG#X/LL	.	.	.	.	.
16BB/	.	.	.	.	.
16D/	.	8gg# 8g#/	.	.	.
16Fn/JJ	.	.	.	.	.
16G#X\LL	.	4ggn 4gn/)	.	.	.
16B\	.	.	.	.	.
16B#X\	.	.	.	.	.
16c#\JJ)	.	.	.	.	[
*	*	*v	*v	*	*
!!LO:LB:g=original
=182||	=182||	=182||	=182||	=182||
*M2/4	*	*M2/4	*	*
*	*	*^	*	*
12r	.	(4dd 4d~/	2a 2e\	.	p <
(12AAL 12AAA/	.	.	.	.	.
12EE/J)	.	.	.	.	.
(12FFnL 12FFFn/	.	4cc# 4c#/)	.	.	.
12AAA/	.	.	.	.	.
12EEJ 12EEE/)	.	.	.	.	[
*	*	*v	*v	*	*
=183||	=183||	=183||	=183||	=183||
*M3/4	*	*M3/4	*	*
*	*	*^	*	*
(16DDD/LL	.	4.ffn/	(>4.aa 4.a~\	.	<
16DD/	.	.	.	.	.
16AA/	.	.	.	.	.
16D/JJ	.	.	.	.	.
8.A/L)	.	.	.	.	.
!	!	!LO:TX:i:b:t=poco rit.	!	!	!
.	.	4.ff#X/	8cccnL 8ccn~\	.	[
(16DD#X/Jk	.	.	.	.	.
16FF#X\LL	.	.	8bb 8b\	.	.
16F#X\	.	.	.	.	.
16Bn\	.	.	8bb-XJ 8b-X\)	.	.
16f#\JJ)	.	.	.	.	.
=184	=184	=184	=184	=184	=184
*	*	*	*	*	*^
!	!	!LO:TX:i:a:t=espress.	!	!	!	!
!	!	!LO:TX:i:a:t=poco avvivando	!	!	!	!
16b-XLL 16e-X 16B-X^\	.	4.ryy	&(4.aa 4.ee-X 4.a^\	.	p	.
!	!	!	!	!	!LO:HP:b	!
(16GGGn\	.	.	.	.	<	.
16GGn\	.	.	.	.	.	.
[<16BB-X\JJ)	.	.	.	.	.	.
(4.B-X 4.BB-^\]	.	.	.	.	.	.
!	!	!	!LO:TX:t=P:problem=krzyżyki w nawiasie	!	!	!
.	.	8ff#X 8dd/	8f#X 8d\	.	.	.
!	!	!	!	!	!	!LO:HP:a
.	.	[4ddd [4ggn [4ee-/	[4dd [4gn [4e-X\	.	.	<
8Bn 8BBn\	.	.	.	.	[	.
*	*	*	*	*	*v	*v
!!LO:LB:g=original
=185	=185	=185	=185	=185	=185
4.d 4.D\	.	8ddd]L 8gg] 8ee-/]&)	8dd]L 8gn] 8e-X\]	.	.
.	.	8fffnJ [8bbn 8ffn/	[8ddnJ [8bn [8g#X [8dn\	.	.
.	.	[4eee 4bb] [4een/	4dd] 4b] 4g#] 4d\]	.	.
!LO:TX:t=P:problem=krzyżyki w nawiasach	!	!	!	!	!
4.c#X 4.C#X\)	.	.	.	.	.
!	!	!LO:TX:i:b:t=poco rit.	!	!	!
.	.	8eee]L [8aa#X 8ee/]	4cc#X 4a#X 4f#X 4en 4c#X\	.	.
.	.	[8fff#XJ 8aa#_ [<8ff#X/	.	.	.
*	*	*v	*v	*	*
=186	=186	=186	=186	=186
(24CCn/LL	.	8fff#] 8aa#] 8ff#\]	.	pp
*	*	*	*	*^
!	!	!	!	!LO:DY:b=2	!
24Cn/	.	.	.	ppp	.
!	!	!	!	!LO:HP:b	!
24B-X/	.	.	.	<	.
*clefG2	*	*	*	*	*
!LO:TX:i:b:t=dolciss.	!	!LO:TX:i:a:t=molto espress.,soave	!	!	!
!	!	!	!	!	!LO:HP:b=2
24cn/	.	(4fffn 4ddd#X 4aan\	.	.	<
24en/	.	.	.	.	.
24b-X/JJ	.	.	.	.	.
8dd#X~\L	.	.	.	.	.
8een\J)	.	8gggn 8eee 8ggn\	.	.	[
8r	.	8fffnL 8eee 8ffn\	.	.	.
!LO:TX:i:b:t=non arpegg.	!	!	!	!	!
(>[8ddn [8g#X [8Bn/	.	[8eeeJ [8ddd# [8ee\	.	[	.
*	*	*	*	*v	*v
=187	=187	=187	=187	=187
*^	*	*^	*	*
8dd]L 8g#] 8B/]	8ryy	.	8eee]L 8ddd#] 8ee\]	2ryy	.	.
8cc#X/J	4.a-X 4.B-X\	.	8gggnJ 8eeen 8ccc#X 8ggn\	.	.	>
4dd/	.	.	8fffnL 8dddn 8ffn\	.	.	.
.	.	.	8eeeJ 8ee\	.	.	.
4ccn/	4f#X 4An\	.	8.ff/L	8dddL 8dd\	.	.
.	.	.	.	8cccnJ 8ccn\	.	.
.	.	.	16gg#X/Jk	.	.	]
*	*	*	*v	*v	*	*
!!LO:LB:g=original
*clefF4	*	*	*	*	*
=188	=188	=188	=188	=188	=188
8a/)	8d#X 8F#X\	.	8bb 8aa 8b\)	.	.
4g#X/	(>[4.e-X [4.Fn\	.	(4ddd 4bb 4dd~\	.	mp
[8a/	.	.	8cccn [8aa 8ccn\	.	.
8a/L]	8e-]L 8F\]	.	8bbL 8aa] 8b\	.	.
[8gn/J	[>8c#XJ [<[>8En\	.	[8aaJ [8ggn [8a\	.	.
*v	*v	*	*	*	*
=189||	=189||	=189||	=189||	=189||
*M2/4	*	*M2/4	*	*
*^	*	*	*	*
8g/L]	8c#]L 8E\]]	.	8aa]L 8gg] 8a\]	.	.
8f#X/J	[8d-XJ [8E-X\	.	8cccnJ 8aa 8ccn\	.	.
4gn/	4d-] 4E-\]	.	8bb-XL 8ggn 8b-X\	.	>
.	.	.	8aaJ 8a\	.	]]
=190	=190	=190	=190	=190	=190
*	*^	*	*^	*	*
!	!	!	!	!	!	!	!LO:HP:a
8.Bn/L	4fn 4Dn\	4ryy	.	8ggnL 8gn/	8.bn\L	.	<
.	.	.	.	8ffnJ 8fn/	.	.	.
16c#X/Jk	.	.	.	.	16cc#X\Jk	.	.
!	!	!	!	!LO:TX:i:b:t=riten.	!	!	!LO:HP:a
8d/)	8BB\L	4G#X\	.	8eeL 8g#X 8e/	4dd\	.	[ >
8rc	8BB-X\J	.	.	8ddJ 8d/)	.	.	]
*v	*v	*v	*	*	*	*	*
=191	=191	=191	=191	=191	=191
(8AL 8AA\	.	(4dd 4d~/	2a 2e\	.	mp <
8E\J)	.	.	.	.	.
(12FnL 12FFn/	.	4cc#X 4c#X/)	.	.	.
12AA/	.	.	.	.	.
12EJ 12EE/	.	.	.	.	[
*	*	*v	*v	*	*
!!LO:PB:g=original
=192||	=192||	=192||	=192||	=192||
*M3/4	*	*M3/4	*	*
!	!	!LO:TX:i:b:t=dolciss.	!	!LO:DY:rj
12DL 12DD/)	.	(4.aa 4.dd 4.b 4.f#~\	.	ppp
&(12DDD/	.	.	.	.
[12AAA/J	.	.	.	.
12AAA/L]	.	.	.	.
12DD/	.	.	.	.
.	.	8gg#X 8ee 8g#X\	.	.
[12AA/J	.	.	.	.
12AA/L]	.	4ff# 4dd 4a\)	.	.
!LO:TX:i:a:t=poco rit.	!	!	!	!
12F#X/	.	.	.	.
12E/J	.	.	.	.
=193	=193	=193	=193	=193
*^	*	*	*	*
8r	2D^\&)	.	8r	.	p
!	!	!	!LO:TX:i:a:t=avvivando	!	!
(>8d 8B 8F#~/	.	.	(<8dd 8b 8f#~/	.	.
8dL 8B 8F#^/	.	.	8ddL 8b 8f#^/	.	.
8A#XJ 8G#X 8E#X~/	.	.	8a#XJ 8g#X 8e#X~/	.	.
8A#L 8G# 8E#~/	4ryy	.	8a#L 8g# 8e#~/	.	.
8BnJ 8Gn 8En~/)	.	.	8bnJ 8gn 8en~/)	.	.
*v	*v	*	*	*	*
=194	=194	=194	=194	=194
12dnL 12Gn 12E-X/	.	(4.dd 4.gn 4.e-X^/	.	.
(12EEE-X/	.	.	.	.
12EE-X/J	.	.	.	.
12AA-X/L	.	.	.	.
12C-X/	.	.	.	.
.	.	8bn 8Bn/	.	.
12D-X/J	.	.	.	.
12Dn\L	.	4ccn 4a-X 4cn/)	.	.
12E-X\	.	.	.	.
12En\J)	.	.	.	.
!!LO:LB:g=original
=195	=195	=195	=195	=195
*^	*	*	*	*
[2F-X/	8r	.	8r	.	mp <
.	(8cn 8E-X~\	.	(8cccn 8ee-X 8ccn~\	.	.
.	8cL 8E-^\	.	8cccL 8ee- 8cc^\	.	.
.	8B-XJ 8D-X~\	.	8ggnJ 8ff-X 8gn~\	.	.
8F-/L]	8B-L 8D-~\	.	8ggL 8ff- 8g~\	.	.
8E-/J	8A-XJ 8Cn~\)	.	8aa-XJ 8ee-X 8a-X~\)	.	[[
*v	*v	*	*	*	*
=196	=196	=196	=196	=196
*	*	*^	*	*
(12EEEn/L	.	2.aa-X/	(4.cccn 4.ccn\	.	sf <
12EEn/	.	.	.	.	.
12AA-X/J	.	.	.	.	.
12BB-X\L	.	.	.	.	.
12BBn\	.	.	.	.	.
.	.	.	8ccc-X 8cc-X\	.	.
12Bn\J	.	.	.	.	.
12D-X\L	.	.	[>4bb-X [4b-X\	.	[
12Dn\	.	.	.	.	.
12d\J)	.	.	.	.	.
=197	=197	=197	=197	=197	=197
(12FFFn/L	.	2ddn/	8bb-]L 8b-\]	.	>
12FFn/	.	.	.	.	.
.	.	.	8aanJ 8an\	.	.
12Dn/J	.	.	.	.	.
12E-X\L	.	.	4.aa-X 4.a-X\	.	.
12e-X\	.	.	.	.	.
12En\J	.	.	.	.	.
12Fn\L	.	4dd-X/	.	.	.
12fn\J)	.	.	.	.	.
.	.	.	8ggn 8gn\)	.	.
12r	.	.	.	.	]
*	*	*v	*v	*	*
!!LO:LB:g=original
=198	=198	=198	=198	=198
!LO:TX:t=P:problem=krzyżyki w nawiasie	!	!	!	!
8FF#XL 8FFF#X^/	.	8r	.	<
(8F#XJ 8AAn~/	.	(8ff#X 8dd#X 8f#X~\	.	.
8F#L 8AA^/	.	8ff#L 8dd# 8f#^/	.	.
8E#XJ 8GG#X~/	.	8cc##XJ 8a#X 8c##X~/	.	.
8E#L 8GG#~/	.	8cc##L 8a# 8c##~/	.	.
8EnJ 8GGn~/)	.	8dd#J 8bn 8d#X~/)	.	[[
=199	=199	=199	=199	=199
*	*	*^	*	*^
!	!	!	!	!	!LO:DY:b	!
12r	.	4.ff#X^ 4.f#X/	&(>2.ddn\	.	sf	.
!	!	!	!	!	!LO:DY:b=2	!
(12GGGn/L	.	.	.	.	mp	<
12GGn/J	.	.	.	.	.	.
12AA#X\L	.	.	.	.	.	.
12BBn\	.	.	.	.	.	.
.	.	8ffn 8fn/	.	.	.	.
12Bn\J	.	.	.	.	.	.
12Cn\L	.	[4een [<4en/	.	.	.	.
12C#X\	.	.	.	.	.	.
12c#X\J)	.	.	.	.	.	.
*	*	*	*	*	*v	*v
=200	=200	=200	=200	=200	=200
(12GGG#X/L	.	8ee]L 8e/]	4b\	.	.
12GG#X/	.	.	.	.	.
.	.	8ee-XJ 8e-X/	.	.	.
12C#X/J	.	.	.	.	.
!	!	!LO:TX:i:a:t=poco riten.	!	!	!
12Dn\L	.	4.dd 4.d/	2b 2e#X\	.	.
12dn\	.	.	.	.	.
12D#X\J	.	.	.	.	.
12En\L	.	.	.	.	.
12Fn\	.	.	.	.	.
.	.	8cc#X 8c#X/&)	.	.	[
12fn\J)	.	.	.	.	.
*	*	*v	*v	*	*
!!LO:LB:g=original
=201	=201	=201	=201	=201
!	!	!LO:TX:i:b:t=non legato	!	!
!	!	!LO:TX:i:a:t=a tempo;avviv.	!	!LO:DY:rj
(12AAA'/L	.	(12ccnL 12cn'/	.	pp
12AA'/	.	12ee-X 12e-X'/	.	.
12E-X'/J	.	12bnJ 12g-X'/	.	.
12G-X'\L	.	12ccL 12c'/	.	.
12Bn'\	.	12g-X 12e-X'/	.	.
12cn'\J	.	12fn'/J	.	.
12d-X'\L	.	12b-XL 12g-X'\	.	.
12D-X'\	.	12cc 12a'\	.	.
12BB-X'\J)	.	12dd-XJ 12b-'\)	.	.
=202	=202	=202	=202	=202
(12AAn'\L	.	(12ee-XL 12g-X\	.	.
12An'\	.	12eee-X 12ee-'\	.	.
12e-X'\J	.	12bbnJ 12gg-X'\	.	<
*clefG2	*	*	*	*
12g-X'/L	.	12cccnL 12ccn'\	.	.
12bn'/	.	12gg-X 12ee-X'\	.	.
12ccn'/J	.	12ffn'\J	.	.
12dd-X'/L	.	12bb-XL 12gg-'\)	.	.
12d-X'/J)	.	(12ccc-X 12aa-X\	.	.
12r	.	12cccnJ 12aan\	.	.
*clefF4	*	*	*	*
!!LO:LB:g=original
=203||	=203||	=203||	=203||	=203||
*M4/4	*	*M4/4	*	*
*met(c)	*	*met(c)	*	*
*^	*	*	*	*
(12BBB-XL 12BBBB-X/	2ryy	.	12ddd-XL 12bb-X'\)	.	f
12GGG-X/)	.	.	(12bbb-X 12bb-'\	.	.
(12GG-XJ 12GGG-/	.	.	12fff#'\J	.	>
12DD-X/L)	.	.	12aaanL 12aan'\	.	.
(12D-X 12DD-/	.	.	12eeen'\	.	.
12BB-X/J)	.	.	12eee-XJ 12ee-X'\	.	.
!	!	!	!LO:TX:i:b:t=riten.	!	!
(12B-XL 12BB-\	4ryy	.	12dddn'\L	.	]
12G-X\)	.	.	12ddd-X 12dd-X'\	.	.
(12g-XJ 12G-\	.	.	12aan'\J	.	>
12B-/L)	12ryy	.	12bb-XL 12b-X'\	.	.
(12b-X 12B-/	[>6B-\	.	12gg-X'\	.	]
12d-X/J)	.	.	12ffnJ 12fn'\)	.	.
*v	*v	*	*	*	*
=204||	=204||	=204||	=204||	=204||
*M3/4	*	*M3/4	*	*
*	*	*^	*	*
!	!	!LO:TX:i:b:t=espress.	!	!	!
12enL 12cn 12B-/]	.	4.ee/	2ccn 2gn\	.	mf
(12BBBB-X/	.	.	.	.	.
12BBB-X/J	.	.	.	.	.
12EEn/L	.	.	.	.	.
12GGn/	.	.	.	.	.
.	.	(8ggn^/	.	.	.
12Cn/J	.	.	.	.	.
12En\L	.	[>4g/)	4ryy	.	.
12Gn\	.	.	.	.	.
12c\J	.	.	.	.	.
!!LO:PB:g=original
=205	=205	=205	=205	=205	=205
*^	*	*	*	*	*
!	!	!	!LO:TX:i:a:t=poco agitato	!	!	!
8en\)	8ryy	.	8gn/L]	8ryy	.	.
(8B-X 8Fn~/	8D-X\	.	(8b-XJ 8fn~/	8d-X\	.	.
8B-L 8F^/	4D-\	.	8b-L 8f^/	4d-\	.	.
8F#XJ 8En/	.	.	8f#XJ 8en~/	.	.	.
8F#L 8E~/	4Cn\	.	8f#L 8e~/	4cn\	.	.
8GnJ 8E-X~/)	.	.	8gnJ 8e-X~/)	.	.	.
*v	*v	*	*	*	*	*
=206	=206	=206	=206	=206	=206
12A#XL 12BBn/	.	(4a#X^/	(4d#X 4Bn\	.	<
(12BBBBn/	.	.	.	.	.
[12BBBn/J	.	.	.	.	.
12BBB/L]	.	8.g#X/L)	8e 8B 8G#X\)	.	.
12EEn/	.	.	.	.	.
.	.	.	8r	.	.
12GG#X/J	.	.	.	.	.
.	.	((16bn/Jk	.	.	.
12BBn\L	.	4B/))	4ryy	.	.
12En\	.	.	.	.	.
12G#X\J	.	.	.	.	[
*	*	*v	*v	*	*
=207	=207	=207	=207	=207
8Bn\L)	.	8r	.	.
(8dnJ 8An 8Fn~\	.	(8ddn 8an 8fn~/	.	.
8dL 8A 8F^\	.	8ddL 8a 8f^/	.	<
8A#XJ 8G#X 8E~\	.	8a#XJ 8g#X 8e~/	.	.
8A#L 8G# [8E~\	.	8a#L 8g# [8e~/	.	.
8BJ 8Gn 8E~\])	.	8bJ 8gn 8e~/])	.	.
!!LO:LB:g=original
=208	=208	=208	=208	=208
!	!	!LO:TX:i:a:t=sempre piu agitato	!	!
12dnL 12Gn 12E-X^/	.	4ddn 4gn 4e-X^/	.	.
(12EEE-X/	.	.	.	.
[12EE-X/J	.	.	.	.
12EE-/L]	.	8ccn:L 8a-X: 8e-: 8A-X:/	.	.
12AA-X/	.	.	.	.
.	.	16r	.	.
12Cn/J	.	.	.	.
.	.	(16ee-X/Jk	.	.
12E-X\L	.	8e-X^\L)	.	<
12A-X\	.	.	.	.
.	.	16r	.	.
12cn\J)	.	.	.	.
.	.	(16aa-X\Jk	.	.
=209	=209	=209	=209	=209
8EEn 8EEEn^/	.	16a-X^/)	.	.
.	.	16r	.	.
16r	.	(8cccn 8aa-X 8ccn~\	.	.
(16A-X\	.	.	.	.
8AA-X^\L)	.	8cccL 8aa- 8cc^\	.	.
16r	.	8ggnJ 8ee 8gn~\	.	.
(16cn\Jk	.	.	.	.
4Cn^/)	.	8ggL 8ee 8g~\	.	.
.	.	8aa-XJ 8ee-X 8a-X~\)	.	.
=210	=210	=210	=210	=210
8FFnL 8FFFn^/	.	(4cccn 4aa-X 4ddn 4ccn^\	.	.
(8dnJ 8Dn^/	.	.	.	.
8dL 8D^\	.	8bbnL 8ggn 8ffn 8bn\)	.	.
8A#XJ 8AA#X^\	.	16r	.	.
.	.	(16ddd\Jk	.	.
8A#L 8AA#^\	.	8ddn^\L)	.	.
8BnJ 8BBn^\)	.	16r	.	.
.	.	(16fffn\Jk	.	.
!!LO:LB:g=original
=211	=211	=211	=211	=211
8FF#X 8FFF#X^/	.	16ffn^\)	.	.
.	.	16r	.	.
16r	.	(8eee#X 8dddn 8bbn 8gg# 8ee#X~\	.	<
(16d#X\	.	.	.	.
8D#X^\L)	.	8eee#L 8ddd 8bb 8gg# 8ee#^\	.	.
16r	.	8ccc##XJ 8aa#X 8ee# 8cc##X~\	.	.
(16f#X\Jk	.	.	.	.
(4F#X^\)	.	8ccc##L 8bb 8gg# 8ee# 8cc##~\	.	.
.	.	8ddd#XJ 8bb 8ff#X 8dd#X~\)	.	.
=212	=212	=212	=212	=212
8GGnL 8GGGn^/	.	4fffn [<4ddd-X [<4bb-X 4ffn\	.	.
(8d-XJ 8D-X^/	.	.	.	.
8d-L 8D-^\	.	8eeenL 8ddd-] 8bb-] 8een\	.	.
8AnJ 8AAn^\	.	16r	.	.
.	.	(16gggn\Jk	.	.
8AL 8AA^\	.	8ggn^\L)	.	.
8B-XJ 8BB-X^\)	.	16r	.	.
.	.	(16bbb-X\Jk	.	.
=213	=213	=213	=213	=213
!	!	!LO:TX:i:b:t=sempre \nmarc. con passione	!	!
(8AA-XL 8AAA-X^/	.	16bb-X^\)	.	ff
.	.	16r	.	.
!	!	!LO:TX:i:b:t=non accel.	!	!
8EnJ 8EEn^/	.	(8bbb-X 8gggn 8eeen 8cccn 8bb-^\	.	.
8A-XL 8AA-X^\	.	8bbb-L 8ggg 8eee 8ccc 8bb-^\	.	.
8B-XJ 8BB-X^\	.	8gggJ 8eee 8ccc 8ggn^\	.	.
8cnL 8Cn^\	.	8gggL 8eee 8ccc 8gg^\	.	.
8enJ 8En^\)	.	8aaa-XJ 8eee 8ccc 8aa-X^\	.	.
!!LO:LB:g=original
=214	=214	=214	=214	=214
(8AAnL 8AAAn^/	.	8gggnL 8eee-X 8cccn 8ggn^\	.	.
8E-XJ 8EE-X^/	.	8fff#XJ 8eee- 8ccc 8ff#X^\	.	.
8F#XL 8FF#X^/	.	8ccccnL 8ccc#X^\	.	.
8AnJ 8AAn^/	.	8fffnJ 8ccc# 8aa 8ffn^\	.	.
8cnL 8Cn^\	.	8eeenL 8ccc# 8aa 8een^\	.	.
8f#XJ 8F#X^\)	.	8eee-XJ 8ccc# 8aa 8ee-X^\)	.	.
=215	=215	=215	=215	=215
(8BB-XL 8BBB-X^/	.	8r	.	.
8D-XJ 8DD-X^/	.	(8eee-- 8bb-X 8gg-X 8ee--^\	.	.
8G-XL 8GG-X^\	.	8eee--L 8bb- 8gg- 8ee--^\	.	.
8AnJ 8AAn^\	.	8cccnJ 8bb- 8gg- 8ccn^\	.	.
8B-XL 8BB-X^\	.	8cccL 8bb- 8gg- 8b^\	.	.
8d-XJ 8D-X^\)	.	8ddd-XJ 8bb- 8gg- 8dd-X^\	.	.
=216	=216	=216	=216	=216
(8BBnL 8BBBn^/	.	8aanL 8ffn 8ddn 8an^\	.	.
8DnJ 8DDn^/	.	8gg#XJ 8ff 8dd 8g#X^\	.	.
!	!	!LO:TX:i:b:t=poco rit.	!	!
8EnL 8EEn^/	.	8dddL 8dd^\	.	.
8FnJ 8FFn^/	.	8ffJ 8b 8g# 8fn^\	.	.
8G#XL 8GG#X^\	.	8eeL 8b 8g# 8e^/	.	.
8BnJ 8BBn^\)	.	8dd#XJ 8b 8g# 8d#X^/)	.	.
!!LO:LB:g=original
=217	=217	=217	=217	=217
!	!	!LO:TX:i:a:t=a tempo	!	!
8CC#XL 8CCC#X^/	.	[4cc# [4a 4fn [4c#/	.	ff <
8AJ 8AA^/	.	.	.	.
8AL 8AA^/	.	8cc#]L 8a] 8e 8c#/]	.	.
8D#XJ 8DD#X^/	.	16r	.	.
.	.	((16ee/Jk	.	.
8D#L 8DD#^/	.	8e^\L))	.	.
8EJ 8EE^/	.	16r	.	.
.	.	[16aa\Jk	.	[[
=218	=218	=218	=218	=218
(8qDD 8qDDD/	.	.	.	.
4.A 4.Fn 4.AA^\)	.	4.aa] 4.ffn 4.b 4.a^\	.	.
8G#X 8E 8AA#X~\	.	8gg#X 8ee 8a#X 8g#X~\	.	.
4Gn 4E-X 4BBn~\	.	4ggn 4ee 4an 4gn~\	.	.
=219	=219	=219	=219	=219
8EEL 8EEE/	.	(>4ddn 4an 4fn [4c#X^/	.	ff
8c#J 8C#^/	.	.	.	.
8c#L 8C#^\	.	8cc#XL 8a 8e 8c#/])	.	<
!LO:TX:t=P:problem=krzyżyki w nawiasach	!	!	!	!
8G#XJ 8GG#X^\	.	16r	.	.
.	.	16een/Jk	.	.
8G#L 8GG#^\	.	8e^\L	.	.
8AJ 8AA^\	.	16r	.	.
.	.	([16aa\Jk	.	[[
!!LO:PB:g=original
=220	=220	=220	=220	=220
(8qFFn 8qFFFn/	.	.	.	.
*	*	*^	*	*
(4.cn 4.A 4.Cn~\)	.	4.aa] 4.ffn 4.ccn 4.a^\	2ryy	.	<
8c#XL 8A 8C#X~/	.	8eeeL 8aa 8ee~\	.	.	.
8d 8A 8D~/	.	8eee-X 8ee-X~\	4ccc#/	.	[
!	!	!LO:TX:i:b:t=riten.	!	!	!
8FF#XJ 8FFF#X/)	.	8dddJ 8dd~\)	.	.	.
=221	=221	=221	=221	=221	=221
*^	*	*	*	*	*
!	!	!	!LO:TX:i:a:t=Grandioso. con gran espressione	!	!	!
4.d#X 4.A 4.D#X/	8r	.	4.ccc#X 4.aa 4.dd#X 4.cc#X/	8r	.	ff <
.	(8BB 8BBB\	.	.	(8B\	.	.
.	4BBB 4BBBB^\)	.	.	4.a 4.f# 4.d#X 4.B 4.A^\)	.	.
8B 8BB/	.	.	8bb 8b/	.	.	.
!	!	!	!LO:TX:i:a:t=rall.	!	!	!
[4f# [4d# [4A [4F#/	8ryy	.	[4fff# [4ddd#X [4bb [4ff#/	.	.	.
.	(8GG#X 8GGG#X\	.	.	(>8g# 8G#\	.	.
=222	=222	=222	=222	=222	=222	=222
8f#]L 8d#] 8A] 8F#/]	4.FF# 4.FFF#\	.	8fff#]L 8ddd#] 8bb] 8ff#/]	4.f# 4.F#\	.	[ <
8aJ 8f# 8d#X 8A/	.	.	(8aaaJ 8fff# 8ddd#X 8aa/	.	.	.
4g# 4f# 4d# 4B#X 4G#^/	.	.	4ggg#^ 4fff# 4ddd# 4bb#X 4gg#/	.	.	.
.	4.FFn 4.FFFn\)	.	.	4.fn 4.Fn\)	.	.
!LO:TX:t=P:problem=krzyżyk w nawiasie	!	!	!LO:TX:t=P:problem=krzyżyk w nawiasie	!	!	!
8aL 8f#X 8d# 8B# 8A/	.	.	8aaaL 8fff#X 8ddd# 8bb# 8aa/	.	.	.
8a#XJ 8A#X/	.	.	8aaa#XJ 8aa#X/)	.	.	.
*	*	*	*v	*v	*	*
!!LO:LB:g=original
=223	=223	=223	=223	=223	=223
!	!	!	!LO:TX:i:b:t=precipitando	!	!
!	!	!	!LO:TX:i:a:t=a tempo;con fuoco	!	!
8EEL 8EEE/	8ryy	.	8r	.	fff
*clefG2	*	*	*tuplet	*	*
!	!	!	!LO:TUP:a	!	!LO:HP:b=2
(>8gnJ 8e 8c# 8Gn~/	8ryy	.	((24ccc#X\LL	.	<
.	.	.	24eee\	.	.
.	.	.	24cccc#X\JJ)	.	.
!	!	!	!LO:TUP:a	!	!
8g#XL 8G#X~/	2fn 2dn~\	.	(24bbb\LL	.	.
.	.	.	24dddn\	.	.
.	.	.	24bb\J)	.	.
*	*	*	*Xtuplet	*	*
8aJ 8A~/	.	.	(24aanL\	.	.
.	.	.	24ddd\	.	.
.	.	.	24aaan\JJ)	.	.
8a#XL 8A#X~/	.	.	(24ggg#\LL	.	.
.	.	.	24ddd\	.	.
.	.	.	24gg#J\)	.	.
8bJ 8B~/)	.	.	(24ggnL\	.	.
.	.	.	24ddd\	.	.
.	.	.	24gggn\JJ)	.	[[
*v	*v	*	*	*	*
=224	=224	=224	=224	=224
!	!	!	!	!LO:HP:b=2
(8.b#XL 8.g# 8.f#X 8.B#X/	.	(24ff#\LL	.	<
.	.	24bb#X\	.	.
.	.	24ggg#XJ\)	.	.
.	.	(24fff#L\	.	.
.	.	24ccc#\	.	.
16cc#Jk 16c#/	.	.	.	.
.	.	24ffn\JJ)	.	.
!LO:TX:t=P:problem=kasowniki w nawiasach	!	!	!	!
8ddnL 8g# 8e 8dn/)	.	(24ee\LL	.	.
.	.	24aa#X\	.	.
.	.	24eeeJ\)	.	.
*clefF4	*	*	*	*
8EEJ 8EEE^^</	.	(24ddd#XL\	.	.
.	.	24bbn\	.	.
.	.	24dd#X\JJ)	.	.
*clefG2	*	*	*	*
8dd#XL 8a 8f# 8d#X^^</	.	(24ddn\LL	.	.
.	.	24aan\	.	.
.	.	24dddnJ\)	.	.
*clefF4	*	*	*	*
(8EJ 8EE/	.	(24ccc#XL\	.	[
.	.	24ff#X\	.	.
.	.	24cc#X\JJ))	.	.
!!LO:LB:g=original
=225	=225	=225	=225	=225
*^	*	*	*	*
8EEL 8EEE/)	4ryy	.	8r	.	ff
!	!	!	!	!	!LO:HP:b=2
(>8GnJ 8E 8C# 8GGn~/	.	.	((24cc#\LL	.	<
.	.	.	24ee\	.	.
.	.	.	24ccc#\JJ)	.	.
8GL 8GG~/	2Fn 2Dn\	.	(24bb\LL	.	.
.	.	.	24dd\	.	.
.	.	.	24bJ\)	.	.
8AJ 8AA~/	.	.	(24aL\	.	.
.	.	.	24dd\	.	.
.	.	.	24aa\JJ)	.	.
8A#XL 8AA#X~/	.	.	(24gg#\LL	.	.
.	.	.	24dd\	.	.
.	.	.	24g#J\)	.	.
8BJ 8BB~/)	.	.	(24gnL\	.	.
.	.	.	24dd\	.	.
.	.	.	24ggn\JJ)	.	.
*v	*v	*	*	*	*
=226	=226	=226	=226	=226
(8.B#XL 8.G# 8.F#X 8.BB#X^\	.	(24f#\LL	.	.
.	.	24b#X\	.	.
.	.	24gg#XJ\)	.	.
.	.	(24ff#L\	.	.
.	.	24cc#\	.	.
16c#Jk 16C#\	.	.	.	.
.	.	24fn\JJ)	.	.
8dL 8G# 8E 8D\)	.	(24e/LL	.	[
.	.	24a#X/	.	.
.	.	24eeJ/)	.	.
8EEJ 8EEE^^\	.	(24dd#XL/	.	.
.	.	24bn/	.	.
.	.	24d#X/JJ)	.	.
8d#XL 8A 8F# 8D#X^^\	.	(24dn/LL	.	.
.	.	24an/	.	.
.	.	24ddnJ/)	.	.
(8EJ 8EE\	.	(24cc#XL/	.	.
.	.	24f#X/	.	.
.	.	24c#X/JJ))	.	.
!!LO:LB:g=original
=227	=227	=227	=227	=227
*^	*	*	*	*
.	(8qEEE\	.	.	.	.
8r	2EE\))	.	8r	.	mp
!	!	!	!LO:TX:i:a:t=sempre molto passionato	!	!LO:HP:t=poco a poco cresc.
(8FF##X/	.	.	((24c#/LL	.	<
.	.	.	24e/	.	.
.	.	.	24cc#/JJ)	.	.
8GG#/L	.	.	(24b/LL	.	.
.	.	.	24d/	.	.
.	.	.	24BJ/)	.	.
8AA/J	.	.	(24AL/	.	.
.	.	.	24d/	.	.
.	.	.	24a/JJ)	.	.
.	(8qDDD\	.	.	.	.
8AA#X/L	4DD\)	.	(24g#/LL	.	.
.	.	.	24d/	.	.
.	.	.	24G#J/)	.	.
8BB/J)	.	.	(24GnL/	.	.
.	.	.	24c#/	.	.
.	.	.	24gn/JJ))	.	.
=228	=228	=228	=228	=228	=228
!LO:TX:i:a:t=m.d.	!	!	!	!	!
8.BB/L	2CC# 2CCC#\	.	8r	.	.
.	.	.	((24e/LL	.	.
.	.	.	24gn/	.	.
!LO:TX:i:a:t=m.s.	!	!	!	!	!
(16AA#X/Jk	.	.	.	.	.
.	.	.	24ee/JJ)	.	.
4A#X^^/)	.	.	(24ee-X/LL	.	.
.	.	.	24g/	.	.
.	.	.	24e-XJ/)	.	.
.	.	.	(24dL/	.	.
.	.	.	24g/	.	.
.	.	.	24dd/JJ)	.	.
4r	4FF# 4FFF#\	.	(24cc#/LL	.	.
.	.	.	24a/	.	.
.	.	.	24c#J/)	.	.
.	.	.	(24cnL/	.	.
.	.	.	24f#/	.	.
.	.	.	24ccn/JJ))	.	.
!!LO:LB:g=original
=229	=229	=229	=229	=229	=229
!LO:TX:i:a:t=m.d.	!	!	!	!	!
8.E-X/L	2FFn 2FFFn\	.	8r	.	.
.	.	.	((24a-X\LL	.	<
.	.	.	24cc-X\	.	.
(16Dn/Jk	.	.	.	.	.
.	.	.	24aa-X\JJ)	.	.
4dn^^/)	.	.	(24ggn\LL	.	.
.	.	.	24cc-\	.	.
.	.	.	24g#J\)	.	.
.	.	.	(24g-XL\	.	.
.	.	.	24cc-\	.	.
.	.	.	24gg-X\JJ)	.	.
4r	4BB-X 4BBB-X\	.	(24ffn\LL	.	.
.	.	.	24dd-X\	.	.
.	.	.	24fnJ\)	.	.
.	.	.	(24enL\	.	.
.	.	.	24b-X\	.	.
.	.	.	24een\JJ))	.	.
=230	=230	=230	=230	=230	=230
!LO:TX:i:a:t=m.d.	!	!	!	!	!
8.Gn/L	2AAn 2AAAn\	.	8r	.	.
.	.	.	((24ccn\LL	.	.
.	.	.	24ee-X\	.	.
!LO:TX:t=P:problem=krzyżyk w nawiasie	!	!	!	!	!
(16F#X/Jk	.	.	.	.	.
.	.	.	24cccn\JJ)	.	.
4f#X^^/)	.	.	(24bbn\LL	.	.
.	.	.	24ee-\	.	<
.	.	.	24bnJ\)	.	.
.	.	.	(24b-XL\	.	.
.	.	.	24ee-\	.	.
.	.	.	24bb-X\JJ)	.	.
!	!LO:TX:t=P:problem=kasowniki w nawiasie	!	!	!	!
4r	4Dn 4DDn\	.	(24aan\LL	.	.
.	.	.	24ffn\	.	.
.	.	.	24anJ\)	.	.
.	.	.	(24g#XL\	.	.
.	.	.	24ddn\	.	.
.	.	.	24gg#X\JJ))	.	[[
*v	*v	*	*	*	*
!!LO:PB:g=original
=231||	=231||	=231||	=231||	=231||
*M2/2	*	*M2/2	*	*
*met(c|)	*	*met(c|)	*	*
*	*	*^	*	*
*	*	*	*^	*	*
!LO:TX:t=P:problem=krzyzyki w nawiasach	!	!LO:TX:B:a:t=Doppio movimento. (Tempo I.)	!	!	!	!
2C#X 2EE 2CC#X^^</	.	(4.bbn 4.b^^/	12bn\L	4ryy	.	mf
*	*	*	*	*	*below	*
.	.	.	12ff#X\	.	3	.
.	.	.	12ee\J	.	2	.
!	!	!	!	!	!	!LO:HP:t=molto cresc.
.	.	.	12dd\L	6ryy	1	<
.	.	.	12cc#X\	.	2	.
.	.	8ryy	.	.	.	.
.	.	.	12a\J	12aa 12a/)	.	.
2BB 2EE 2DD 2BBB^^</	.	(4.eee 4.ee^^/	12ee\L	4ryy	.	.
.	.	.	12ccc#\	.	.	.
.	.	.	12bb\J	.	.	.
.	.	.	12aa\L	6ryy	.	.
.	.	.	12gg#\	.	.	.
.	.	8ryy	.	.	.	.
.	.	.	12dd\J	12ddd/)	.	.
=232	=232	=232	=232	=232	=232	=232
2AA 2EE 2CC# 2AAA^^</	.	(4.fff# 4.ff#^^/	12ff#\L	4ryy	.	.
.	.	.	12ccc#\	.	.	.
.	.	.	12bb\J	.	.	.
.	.	.	12aa\L	6ryy	.	.
.	.	.	12ff#\	.	.	.
.	.	8ryy	.	.	.	.
.	.	.	12ee\J	12eee 12ee/)	.	.
4..FF# 4..DD 4..AAA 4..FFF#^^</	.	(4.aaa 4.aa^^/	12aa\L	4ryy	.	.
.	.	.	12fff#\	.	.	.
.	.	.	12eee\J	.	.	.
.	.	.	12ddd\L	6ryy	.	.
.	.	.	12ccc#\	.	.	.
.	.	8ryy	.	.	.	.
.	.	.	12aa#X\J	12aaa#X 12aa#/)	.	.
[<16FFn [<16FFFn/	.	.	.	.	.	.
*	*	*v	*v	*v	*	*
!!LO:LB:g=original
=233	=233	=233	=233	=233
*^	*	*	*	*
!	!	!	!	!	!LO:DY:a
2fn 2d 2B-X 2Fn^^/	1FF_ 1FFF_	.	(12ddddL 12ddd^^\	.	sf
.	.	.	12bbb-X\	.	ff
.	.	.	12fffn\J	.	.
.	.	.	16ddd\LL	.	>
.	.	.	16bb-X\	.	.
.	.	.	16ffn\	.	.
.	.	.	16dd\JJ)	.	]
*	*	*	*	*	*^
!	!	!	!	!	!LO:DY:b=2	!LO:DY:a
2e-X 2A 2F 2E-X^^/	.	.	(12ccccnL 12cccn^^\	.	sf	sf
*	*	*	*	*	*v	*v
.	.	.	12aaa\	.	.
.	.	.	12fff\J	.	.
.	.	.	16ccc\LL	.	>
.	.	.	16aa\	.	.
.	.	.	16ffn\	.	.
.	.	.	16ccn\JJ)	.	]]
=234	=234	=234	=234	=234	=234
*	*	*	*	*	*^
!	!	!	!	!	!LO:DY:b=2	!LO:DY:a
2d 2B-X 2Fn 2D^^/	2.FF_ 2.FFF\_	.	(12bbb-XL 12bb-X^^\	.	sf	sf
*	*	*	*	*	*v	*v
.	.	.	12fffn\	.	.
.	.	.	12ddd\J	.	.
.	.	.	16bb-\LL	.	>
.	.	.	16ffn\	.	.
.	.	.	16dd\	.	.
.	.	.	16b-X\JJ)	.	]
*	*	*	*	*	*^
!	!	!	!	!	!LO:DY:b=2	!LO:DY:a
2fn 2d 2B- 2An 2Fn^^/	.	.	(12aaaL 12aa^^\	.	sf	sf
*	*	*	*	*	*v	*v
.	.	.	12ddd\	.	.
.	.	.	12bbn\J	.	.
.	8.FF]L 8.FFF\]	.	16aa\LL	.	>
.	.	.	16dd\	.	.
.	.	.	16bn\	.	.
!	!LO:TX:t=P:problem=kasowniki w nawiasach	!	!	!	!
.	16EEnJk 16EEEn\	.	16a\JJ)	.	]]
*v	*v	*	*	*	*
!!LO:LB:g=original
=235	=235	=235	=235	=235
*	*	*^	*	*
4en 4B 4G#X 4En^^\	.	(4gg#X 4g#^^/	12g#X\L	.	<
.	.	.	12b\	.	.
.	.	.	12een\J	.	.
4d#X 4B 4G# 4D#X^^\	.	4bb 4b^^/	12b\L	.	.
.	.	.	12ee\	.	.
.	.	.	12gg#\J	.	.
4dn 4B 4G# 4E 4Dn^^\	.	4bbb 4bb^^/	12bb\L	.	.
!	!	!LO:TX:i:b:t=poco rit.	!	!	!
.	.	.	12ddd\	.	.
.	.	.	12ddd#X\J	.	.
8.c#L 8.A 8.E 8.C#^^</	.	4aaa 4aa^^/)	12aa\L	.	.
.	.	.	12ddd#\	.	.
.	.	.	12eee\J	.	.
16CC#Jk 16CCC#/	.	.	.	.	[
*	*	*v	*v	*	*
=236	=236	=236	=236	=236
!	!	!LO:TX:i:b:t=precipitando	!	!
(12DDL 12AAA 12DDD/	.	(12aaaL 12fffn 12ddd 12aa\	.	fff
12FFFn/)	.	12dddd 12ddd^^\	.	.
(12FFnJ 12FFF/	.	12aaa#X\J	.	.
12AAA/L)	.	12bbbL 12bb\	.	.
(12AA 12AAA/	.	12ggg#\	.	.
12DD/J)	.	12gggn\J	.	.
(12DL 12DD/	.	12fff\L	.	.
12FFn/)	.	12fffn 12ffn\	.	.
(>12FnJ 12FF/	.	12ccc#\J	.	.
12AA\L)	.	12dddL 12dd\	.	.
(12A 12AA\	.	12bb\	.	.
12D\J)	.	12bb-X\J	.	.
!!LO:LB:g=original
=237	=237	=237	=237	=237
(12dL 12D\	.	12aaL 12a\	.	.
12Fn\)	.	12gg#\	.	.
(12fnJ 12F\	.	12ee\J	.	.
12A\L)	.	12ffnL 12fn\	.	.
(12a 12A\	.	12dd\	.	.
12e\J)	.	12cc#\J	.	.
(12f\L	.	12b/L	.	.
12B\	.	12a 12d/	.	.
!	!	!LO:TX:i:b:t=poco rit.	!	!
12A\J	.	12e/J	.	.
12G#\L	.	12fn/L	.	.
12A\	.	12d/	.	.
12Fn\J)	.	12c#/J)	.	.
*	*	*clefF4	*	*
=238	=238	=238	=238	=238
*	*	*tremolo	*	*
!	!	!LO:TX:t=P:problem:mixed beam	!	!LO:DY:b=2
.	.	8qEE< 8qEEE</	.	sff
1ryy	.	32BLLL 32A 32D;\	.	sff
.	.	32c#< 32Fn< 32C#<;</	.	.
.	.	32B 32A 32D\	.	.
.	.	32c#< 32Fn< 32C#</	.	.
.	.	32B 32A 32D\	.	.
.	.	32c#< 32Fn< 32C#</	.	.
.	.	32B 32A 32D\	.	.
.	.	32c#< 32Fn< 32C#</	.	.
.	.	32B 32A 32D\	.	.
.	.	32c#< 32Fn< 32C#</	.	.
.	.	32B 32A 32D\	.	.
.	.	32c#< 32Fn< 32C#</	.	.
.	.	32B 32A 32D\	.	.
.	.	32c#< 32Fn< 32C#</	.	.
.	.	32B 32A 32D\	.	.
.	.	32c#<JJJ 32Fn< 32C#<;</	.	.
!	!	!LO:TX:t=P:problem:mixed beam	!	!LO:DY:b=2
.	.	8qE< 8qEE</	.	sff
.	.	32BLLL 32G# 32D;\	.	sff
.	.	32c#< 32E< 32C#<;\	.	.
.	.	32B 32G# 32D\	.	.
.	.	32c#</ 32E</ 32C#</	.	.
.	.	32B 32G# 32D\	.	.
.	.	32c#</ 32E</ 32C#</	.	.
.	.	32B 32G# 32D\	.	.
.	.	32c#</ 32E</ 32C#</	.	.
.	.	32B 32G# 32D\	.	.
.	.	32c#</ 32E</ 32C#</	.	.
.	.	32B 32G# 32D\	.	.
.	.	32c#</ 32E</ 32C#</	.	.
.	.	32B 32G# 32D\	.	.
.	.	32c#</ 32E</ 32C#</	.	.
.	.	32B 32G# 32D\	.	.
.	.	32c#</JJJ 32E</ 32C#<;/	.	.
!!LO:LB:g=original
*	*	*clefG2	*	*
=239||	=239||	=239||	=239||	=239||
*M3/2	*	*M3/2	*	*
!	!	!LO:TX:B:a:t=Maestoso. poco meno mosso	!	!
1A 1E 1D^^	.	1dd 1a 1e 1d^^	.	??? <
8qqAAAL 8qqAAAA/	.	.	.	.
8qqE>\ 8qqEE>\	.	.	.	.
8qqEE 8qqEEE/	.	.	.	.
8qqA>\ 8qqAA>\	.	.	.	.
8qqAA 8qqAAA/	.	.	.	.
8qqe>/ 8qqE>/	.	.	.	.
8qqE 8qqEE/	.	.	.	.
8qqa>\ 8qqA>\	.	.	.	.
!LO:TX:t=P:problem:mixed beam	!	!	!	!
8qqAJ 8qqAA/	.	.	.	.
2A 2E 2C#^^\	.	2cc# 2a 2e 2c#^^/	.	[ sff
*^	*	*	*	*
[<8qDD/ [<8qDDD/	8qD	.	.	.	.
!!LO:LB:g=original
=240	=240	=240	=240	=240	=240
(2.A 2.Fn 2.AA^^/	1.DD] 1.DDD]	.	(2.aa 2.ffn 2.b 2.a^^\	.	ff
4G# 4E 4AA#X~/	.	.	4gg# 4ee 4a#X 4g#~\	.	.
2Gn 2E-X 2BB~/)	.	.	2ggn 2ee-X 2an 2gn~\)	.	.
*v	*v	*	*	*	*
=241	=241	=241	=241	=241
1d 1A 1En 1D^^	.	1ddd 1aa 1een 1dd^^	.	fff
(8qqAAAA/L	.	.	.	<
8qqEEE/	.	.	.	.
8qqAAA/J	.	.	.	.
8qqAAA/L	.	.	.	.
8qqEE/	.	.	.	.
8qqAA/J	.	.	.	.
8qqAA\L	.	.	.	.
8qqE\	.	.	.	.
8qqA\J	.	.	.	.
.	.	(8qqf#\L	.	.
.	.	8qqcc#\	.	.
.	.	8qqff#\J	.	.
.	.	8qqff#\L	.	.
.	.	8qqccc#\	.	.
.	.	8qqfff#\J	.	.
.	.	8qqa\L	.	.
.	.	8qqee\	.	.
.	.	8qqaa\J	.	.
*clefG2	*	*	*	*
8qqA/L	.	8qqaa\L	.	.
8qqe/	.	8qqeee\	.	.
8qqa/J	.	8qqaaa\J	.	.
*	*	*8va	*	*
8qqa\L	.	8qqaaa\L	.	.
8qqee\	.	8qqeeee\	.	.
8qqccc#\J)	.	8qqaaaa\J)	.	[
*	*	*X8va	*	*
*clefF4	*	*	*	*
2c# 2A 2E 2C#^^\	.	2ccc# 2aa 2ee 2cc#^^\	.	sff
*	*	*clefF4	*	*
=242	=242	=242	=242	=242
1.AAA 1.EEE 1.AAAA^^<;<	.	1.A 1.E 1.C# 1.AA^^;	.	sfff
==	==	==	==	==
*-	*-	*-	*-	*-
!!!system-decoration: [(s1,s2)]
!!!RDF**kern: > = above
!!!RDF**kern: < = below
!!!RDF**dynam: > = dim.
!!!RDF**kern: N = linked
!!!ENC: Andrzej Gręziak
!!!END: 2023-09-13
!!!ENC: Leszek Kubiak
!!!END: 2023-10-18
